!!!!SEGMENT: pl-stab--7a--001_matuszkiewicz-franciszek--sinphonia-ex-b-allegro.krn
!!!cenid: 18xx:3534
!!!COM: Matuszkiewicz, Franciszek
!!!COM-rismid:
!!!CDT:
!!!CNT:
!!!OPR: Sinphonia ex B
!!!OTL: Allegro
!!!OMV: 001
!!!PDT:
!!!AGN:
!!!SMS-siglum: PL-STAb
!!!SMS-shelfmark: 7a
!!!SMS-shelfwork: M
!!!SMS-variant:
!!!SMS-altvar:
!!!NIFC-rismid: 301050601
!!!URL-scan: https://repozytorium.nifc.pl/islandora/object/pl-stab%3A1758/datastream/PDF/view
!!!ONB-nifc: UWAGA: części: 1. Allegro, 2. Andante, 3. Rondo
**kern	**fba	**dynam	**kern	**dynam	**kern	**dynam	**kern	**dynam	**kern	**kern	**dynam	**kern	**dynam	**kern	**dynam
*part8	*part8	*part8	*part7	*part7	*part6	*part6	*part5	*part5	*part4	*part3	*part3	*part2	*part2	*part1	*part1
*staff8	*	*	*staff7	*	*staff6	*	*staff5	*	*staff4	*staff3	*	*staff2	*	*staff1	*
*Iorgan	*	*	*Iviola	*	*Ivioln	*	*Ivioln	*	*Iempty	*Iempty	*	*Iempty	*	*Iclars	*
*I"Organo.	*	*	*I"Alto Viola Obligata.	*	*I"Violino Secundo.	*	*I"Violino Primo.	*	*I"Corno Secundo in B.	*I"Corno Primo in B:	*	*I"Clarinetto Secundo.	*	*I"Clarinetto Primo.	*
*I'org	*	*	*I'vla	*	*I'vl 2	*	*I'vl 1	*	*I'cor 2 in B|b	*I'cor 1 in B|b	*	*I'cl 2	*	*I'cl 1	*
*ICklav 	*	*	*ICstr	*	*ICstr	*	*ICstr	*	*ICbras	*ICbras	*	*ICbras	*	*ICbras	*
*clefF4	*	*	*clefC3	*	*clefG2	*	*clefG2	*	*clefG2	*clefG2	*	*clefG2	*	*clefG2	*
*	*	*	*	*	*	*	*	*	*ITrd1c2	*ITrd1c2	*	*ITrd1c2	*	*ITrd1c2	*
*k[b-e-]	*	*	*k[b-e-]	*	*k[b-e-]	*	*k[b-e-]	*	*k[b-e-]	*k[b-e-]	*	*k[b-e-]	*	*k[b-e-]	*
*B-:	*	*	*B-:	*	*B-:	*	*B-:	*	*B-:	*B-:	*	*B-:	*	*B-:	*
*M4/4	*	*	*M4/4	*	*M4/4	*	*M4/4	*	*M4/4	*M4/4	*	*M4/4	*	*M4/4	*
*met(c)	*	*	*met(c)	*	*met(c)	*	*met(c)	*	*met(c)	*met(c)	*	*met(c)	*	*met(c)	*
=1	=1	=1	=1	=1	=1	=1	=1	=1	=1	=1	=1	=1	=1	=1	=1
*all\right:global	*	*	*all\right:global	*	*all\right:global	*	*all\right:global	*	*all\right:global	*all\right:global	*	*all\right:global	*	*all\right:global	*
!LO:TX:a:t=|	!	!	!	!	!LO:TX:a:t=|	!	!LO:TX:a:t=|	!	!	!	!	!	!	!LO:TX:t=P:problem:wszystkie dolne caudy z prawej strony	!
!LO:TX:a:t=allo.	!	!	!LO:TX:a:t=Allo	!	!LO:TX:a:t=Allo.	!	!LO:TX:a:t=Allo.	!	!LO:TX:a:t=Allo	!LO:TX:a:t=Allo	!	!LO:TX:a:t=Allo	!	!LO:TX:a:t=Allo	!
4.B-\	.	.	4.b-'\	.	4.b-\	.	4.bb-\	.	4.b-'\	4.b-'\	.	4.b-'\	.	4.bb-'\	.
!LO:TX:a:t=|	!	!	!	!	!LO:TX:b:t=|	!	!LO:TX:a:t=|	!	!	!	!	!	!	!	!
8F\	.	.	8f'\	.	8f/	.	8ff\	.	8f'\	8f'/	.	8f'/	.	8ff'\	.
!LO:TX:a:t=|	!	!	!	!	!LO:TX:b:t=|	!	!LO:TX:a:t=|	!	!	!	!	!	!	!	!
8D\L	.	.	8d'\L	.	8d/L	.	8dd\L	.	8d'/L	8d'/L	.	8d'/L	.	8dd'\L	.
!LO:TX:a:t=|	!	!	!	!	!LO:TX:b:t=|	!	!LO:TX:a:t=|	!	!	!	!	!	!	!	!
8F\	.	.	8f'\	.	8f/	.	8ff\	.	8f'/	8f'/	.	8f'/	.	8ff'\	.
!LO:TX:a:t=|	!	!	!	!	!LO:TX:b:t=|	!	!LO:TX:a:t=|	!	!	!	!	!	!	!	!
8D\	.	.	8d'\	.	8d/	.	8dd\	.	8d'/	8d'/	.	8d'/	.	8dd'\	.
!LO:TX:a:t=|	!	!	!	!	!LO:TX:b:t=|	!	!LO:TX:a:t=|	!	!	!	!	!	!	!	!
8BB-\J	.	.	8B-'\J	.	8B-/J	.	8b-\J	.	8B-'/J	8B-'/J	.	8B-'/J	.	8b-'\J	.
=2	=2	=2	=2	=2	=2	=2	=2	=2	=2	=2	=2	=2	=2	=2	=2
*	*	*	*	*	*	*	*2\right	*	*	*	*	*	*	*2\right	*
!LO:TX:b:i:t=|	!	!	!	!	!	!	!LO:TX:b:i:t=|	!	!	!	!	!	!	!	!
4FF/	.	.	4F/	.	4c/	.	4f/	.	4F/	4F/	.	4F/	.	4f'/	.
4r	.	.	4r	.	8f/L	.	2ff\	.	4r	4r	.	4r	.	4r	.
.	.	.	.	.	8g/J	.	.	.	.	.	.	.	.	.	.
*	*	*	*	*	*	*	*	*	*	*	*	*2\right	*	*	*
4r	.	.	4r	.	4a\	.	.	.	2r	2r	.	2cc\	.	2ee-\	.
4A\	.	.	8a\L	.	4cc\	.	8gg\L	.	.	.	.	.	.	.	.
.	.	.	8a\J	.	.	.	8aa\J	.	.	.	.	.	.	.	.
=3	=3	=3	=3	=3	=3	=3	=3	=3	=3	=3	=3	=3	=3	=3	=3
4B-\	.	.	8cc\L	.	8b-\L	.	8bb-\L	.	4r	4r	.	8b-\	.	8dd\	.
.	.	.	8cc\	.	8f\J	.	8ff\	.	.	.	.	8r	.	8r	.
*	*	*	*	*	*	*	*	*	*	*2\right	*	*	*	*	*
4E-\	8 6	.	8e-\	.	4cc\	.	8gg\	.	2f/	2cc\	.	8e-/	.	8cc\	.
.	.	.	8e-\J	.	.	.	8ee-\J	.	.	.	.	8r	.	8r	.
4F\	6 4	.	8f\L	.	4b-\	.	8dd\L	.	.	.	.	8d/	.	8b-\	.
.	.	.	8f\	.	.	.	8ff\	.	.	.	.	8r	.	8r	.
4F#X\	5 3	.	8f#X\	.	8a\L	.	8ee-\	.	4f/	4cc\	.	8c/	.	8a\	.
.	.	.	8f#\J	.	8f#X\J	.	8cc\J	.	.	.	.	8r	.	8r	.
=4	=4	=4	=4	=4	=4	=4	=4	=4	=4	=4	=4	=4	=4	=4	=4
4G\	3	.	4g\	.	4g/	.	4b-\	.	4d/	4b-\	.	4d/	.	4b-\	.
4r	.	.	4r	.	8fn/L	.	2ff\	.	4r	4r	.	4r	.	4r	.
.	.	.	.	.	8g/J	.	.	.	.	.	.	.	.	.	.
4r	.	.	4r	.	4a\	.	.	.	2r	2r	.	2cc\	.	2ee-\	.
4A\	.	.	8a\L	.	4cc\	.	8gg\L	.	.	.	.	.	.	.	.
.	.	.	8a\J	.	.	.	8aa\J	.	.	.	.	.	.	.	.
=5	=5	=5	=5	=5	=5	=5	=5	=5	=5	=5	=5	=5	=5	=5	=5
4B-\	.	.	8b-\L	.	8b-\L	.	8bb-\L	.	4r	4r	.	8b-\L	.	4dd\	.
.	.	.	8b-\	.	8f\J	.	8ff\	.	.	.	.	8f\J	.	.	.
4E-\	6	.	8e-\	.	4cc\	.	8gg\	.	2f/	2cc\	.	4e-/	.	4cc\	.
.	.	.	8e-\J	.	.	.	8ee-\J	.	.	.	.	.	.	.	.
!	!	!	!LO:TX:t=P:problem:mixed beam	!	!	!	!	!	!	!	!	!	!	!	!
4F\	6 4	.	8f\L	.	8b-\L	.	8dd\L	.	.	.	.	4d/	.	4b-\	.
.	.	.	8f\	.	8dd\J	.	8ff\	.	.	.	.	.	.	.	.
4FF/	5 3	.	8F/	.	8a\L	.	8ee-\	.	4f/	4cc\	.	4c/	.	4a\	.
.	.	.	8F/J	.	8e-\J	.	8cc\J	.	.	.	.	.	.	.	.
=6	=6	=6	=6	=6	=6	=6	=6	=6	=6	=6	=6	=6	=6	=6	=6
*tremolo	*	*	*tremolo	*	*	*	*	*	*	*	*	*	*	*	*
8BB-/L	.	.	8B-/L	.	8d/	.	8b-\	.	1B-/	1b-\	.	4d/	.	4b-\	.
8BB-/	.	.	8B-/	.	4B-/	.	4B-/	.	.	.	.	.	.	.	.
8BB-/	.	.	8B-/	.	.	.	.	.	.	.	.	8f\L	.	8cc\L	.
8BB-/J	.	.	8B-/J	.	4d/	.	4d/	.	.	.	.	8b-\J	.	8dd\J	.
8BB-/L	.	.	8B-/L	.	.	.	.	.	.	.	.	4b-\	.	4dd\	.
8BB-/	.	.	8B-/	.	4f/	.	4f/	.	.	.	.	.	.	.	.
8BB-/	.	.	8B-/	.	.	.	.	.	.	.	.	8cc\L	.	8ee-\L	.
8BB-/J	.	.	8B-/J	.	8b-\	.	8b-\	.	.	.	.	8dd\J	.	8ff\J	.
=7	=7	=7	=7	=7	=7	=7	=7	=7	=7	=7	=7	=7	=7	=7	=7
*2\right	*	*	*2\right	*	*	*	*	*	*	*	*	*	*	*	*
8B-\L	.	.	8b-\L	.	8b-\	.	8b-\	.	1d/	1b-\	.	2dd\	.	2ff\	.
8B-\	.	.	8b-\	.	4B-/	.	4d/	.	.	.	.	.	.	.	.
8B-\	.	.	8b-\	.	.	.	.	.	.	.	.	.	.	.	.
8B-\J	.	.	8b-\J	.	4d/	.	4f/	.	.	.	.	.	.	.	.
8B-\L	.	.	8b-\L	.	.	.	.	.	.	.	.	2b-\	.	2dd\	.
8B-\	.	.	8b-\	.	4f/	.	4b-\	.	.	.	.	.	.	.	.
8B-\	.	.	8b-\	.	.	.	.	.	.	.	.	.	.	.	.
8B-\J	.	.	8b-\J	.	8b-\	.	8dd\	.	.	.	.	.	.	.	.
*Xtremolo	*	*	*Xtremolo	*	*	*	*	*	*	*	*	*	*	*	*
!	!	!	!LO:LB:g=original	!	!LO:LB:g=original	!	!LO:LB:g=original	!	!	!	!	!	!	!	!
=8	=8	=8	=8	=8	=8	=8	=8	=8	=8	=8	=8	=8	=8	=8	=8
4r	.	.	4r	.	16a/LL	.	8ee-\L	.	1f/	1cc\	.	4cc\	.	2ee-\	.
.	.	.	.	.	16a/	.	.	.	.	.	.	.	.	.	.
.	.	.	.	.	16a/	.	8cc\	.	.	.	.	.	.	.	.
.	.	.	.	.	16a/JJ	.	.	.	.	.	.	.	.	.	.
*	*	*	*	*	*tremolo	*	*	*	*	*	*	*	*	*	*
8c\L	.	.	8cc\L	.	16a/LL	.	8a\	.	.	.	.	4a\	.	.	.
.	.	.	.	.	16a/	.	.	.	.	.	.	.	.	.	.
8A\J	.	.	8a\J	.	16a/	.	8f\J	.	.	.	.	.	.	.	.
.	.	.	.	.	16a/JJ	.	.	.	.	.	.	.	.	.	.
4F\	.	.	4f\	.	16a/LL	.	8en/L	.	.	.	.	4f/	.	2cc\	.
.	.	.	.	.	16a/	.	.	.	.	.	.	.	.	.	.
.	.	.	.	.	16a/	.	8f/	.	.	.	.	.	.	.	.
.	.	.	.	.	16a/JJ	.	.	.	.	.	.	.	.	.	.
4E-\	.	.	4e-\	.	16A/LL	.	8c/	.	.	.	.	4e-/	.	.	.
.	.	.	.	.	16A/	.	.	.	.	.	.	.	.	.	.
.	.	.	.	.	16A/	.	8e-X/J	.	.	.	.	.	.	.	.
.	.	.	.	.	16A/JJ	.	.	.	.	.	.	.	.	.	.
*	*	*	*	*	*Xtremolo	*	*	*	*	*	*	*	*	*	*
=9	=9	=9	=9	=9	=9	=9	=9	=9	=9	=9	=9	=9	=9	=9	=9
8D\L	.	.	8d\L	.	8B-/	.	8d/	.	1B-/	1b-\	.	4d/	.	4b-\	.
8BB-\	.	.	8B-\	.	4B-/	.	4B-/	.	.	.	.	.	.	.	.
8BB-\	.	.	8B-\	.	.	.	.	.	.	.	.	8f\L	.	8cc\L	.
8BB-\J	.	.	8B-\J	.	4d/	.	4d/	.	.	.	.	8b-\J	.	8dd\J	.
!LO:LB:g=original	!	!	!	!	!	!	!	!	!	!	!	!LO:LB:g=original	!	!	!
*tremolo	*	*	*tremolo	*	*	*	*	*	*	*	*	*	*	*	*
8BB-/L	.	.	8B-/L	.	.	.	.	.	.	.	.	4b-\	.	4dd\	.
8BB-/	.	.	8B-/	.	4f/	.	4f/	.	.	.	.	.	.	.	.
8BB-/	.	.	8B-/	.	.	.	.	.	.	.	.	8cc\L	.	8ee-\L	.
8BB-/J	.	.	8B-/J	.	8b-\	.	8b-/	.	.	.	.	8dd\J	.	8ff\J	.
!	!	!	!	!	!	!	!	!	!	!	!	!	!	!LO:LB:g=original	!
=10	=10	=10	=10	=10	=10	=10	=10	=10	=10	=10	=10	=10	=10	=10	=10
8B-\L	.	.	8b-\L	.	8b-\	.	8b-/	.	1d/	1b-\	.	2dd\	.	2ff\	.
8B-\	.	.	8b-\	.	4B-/	.	4d/	.	.	.	.	.	.	.	.
8B-\	.	.	8b-\	.	.	.	.	.	.	.	.	.	.	.	.
8B-\J	.	.	8b-\J	.	4d/	.	4f/	.	.	.	.	.	.	.	.
8B-\L	.	.	8b-\L	.	.	.	.	.	.	.	.	2b-\	.	2dd\	.
8B-\	.	.	8b-\	.	4f/	.	4b-\	.	.	.	.	.	.	.	.
8B-\	.	.	8b-\	.	.	.	.	.	.	.	.	.	.	.	.
8B-\J	.	.	8b-\J	.	8b-\	.	8dd\	.	.	.	.	.	.	.	.
*Xtremolo	*	*	*Xtremolo	*	*	*	*	*	*	*	*	*	*	*	*
=11	=11	=11	=11	=11	=11	=11	=11	=11	=11	=11	=11	=11	=11	=11	=11
*	*	*	*	*	*2\right	*	*	*	*	*	*	*	*	*	*
*	*	*	*	*	*tremolo	*	*	*	*	*	*	*	*	*	*
4r	.	.	4r	.	16a\LL	.	8ee-\L	.	1f/	1cc\	.	4cc\	.	2ee-\	.
.	.	.	.	.	16a\	.	.	.	.	.	.	.	.	.	.
.	.	.	.	.	16a\	.	8cc\	.	.	.	.	.	.	.	.
.	.	.	.	.	16a\	.	.	.	.	.	.	.	.	.	.
8c\L	.	.	8cc\L	.	16a\	.	8a\	.	.	.	.	4a\	.	.	.
.	.	.	.	.	16a\	.	.	.	.	.	.	.	.	.	.
8A\J	.	.	8a\J	.	16a\	.	8f\J	.	.	.	.	.	.	.	.
.	.	.	.	.	16a\JJ	.	.	.	.	.	.	.	.	.	.
4F\	.	.	4f\	.	16A/LL	.	8en/L	.	.	.	.	4f/	.	2cc\	.
.	.	.	.	.	16A/	.	.	.	.	.	.	.	.	.	.
.	.	.	.	.	16A/	.	8f/	.	.	.	.	.	.	.	.
.	.	.	.	.	16A/	.	.	.	.	.	.	.	.	.	.
4E-\	.	.	4e-\	.	16A/	.	8c/	.	.	.	.	4e-/	.	.	.
.	.	.	.	.	16A/	.	.	.	.	.	.	.	.	.	.
.	.	.	.	.	16A/	.	8e-X/J	.	.	.	.	.	.	.	.
.	.	.	.	.	16A/JJ	.	.	.	.	.	.	.	.	.	.
*	*	*	*	*	*Xtremolo	*	*	*	*	*	*	*	*	*	*
=12	=12	=12	=12	=12	=12	=12	=12	=12	=12	=12	=12	=12	=12	=12	=12
8D\L	.	.	8d\L	.	8B-/L	.	8d/L	.	[1B-/	[1b-\	.	1d/	.	1b-\	.
8BB-\	.	.	8B-\	.	8d/	.	8f/	.	.	.	.	.	.	.	.
8BB-\	.	.	8B-\	.	8f/	.	8b-/	.	.	.	.	.	.	.	.
8BB-\J	.	.	8B-\J	.	8b-/J	.	8dd/J	.	.	.	.	.	.	.	.
*tremolo	*	*	*tremolo	*	*	*	*	*	*	*	*	*	*	*	*
8BB-/L	.	.	8B-/L	.	4b-\	.	2ff\	.	.	.	.	.	.	.	.
8BB-/	.	.	8B-/	.	.	.	.	.	.	.	.	.	.	.	.
8BB-/	.	.	8B-/	.	16b-/LL 16d/	.	.	.	.	.	.	.	.	.	.
.	.	.	.	.	16b-/ 16d/	.	.	.	.	.	.	.	.	.	.
8BB-/J	.	.	8B-/J	.	16b-/ 16d/	.	.	.	.	.	.	.	.	.	.
.	.	.	.	.	16b-/JJ 16d/	.	.	.	.	.	.	.	.	.	.
=13	=13	=13	=13	=13	=13	=13	=13	=13	=13	=13	=13	=13	=13	=13	=13
*	*	*	*	*	*tremolo	*	*	*	*	*	*	*	*	*	*
8B-\L	.	.	8B-/L	.	16b-/LL 16d/	.	4.bb-\	.	1B-/_	1b-\_	.	1b-\	.	1dd\	.
.	.	.	.	.	16b-/ 16d/	.	.	.	.	.	.	.	.	.	.
8B-\	.	.	8B-/	.	16b-/ 16d/	.	.	.	.	.	.	.	.	.	.
.	.	.	.	.	16b-/ 16d/	.	.	.	.	.	.	.	.	.	.
8B-\	.	.	8B-/	.	16b-/ 16d/	.	.	.	.	.	.	.	.	.	.
.	.	.	.	.	16b-/ 16d/	.	.	.	.	.	.	.	.	.	.
8B-\J	.	.	8B-/J	.	16b-/ 16d/	.	8ff\	.	.	.	.	.	.	.	.
.	.	.	.	.	16b-/JJ 16d/	.	.	.	.	.	.	.	.	.	.
8B-\L	.	.	8B-/L	.	16b-/LL 16d/	.	8dd\L	.	.	.	.	.	.	.	.
.	.	.	.	.	16b-/ 16d/	.	.	.	.	.	.	.	.	.	.
8B-\	.	.	8B-/	.	16b-/ 16d/	.	8b-\	.	.	.	.	.	.	.	.
.	.	.	.	.	16b-/ 16d/	.	.	.	.	.	.	.	.	.	.
8B-\	.	.	8B-/	.	16b-/ 16d/	.	8f\	.	.	.	.	.	.	.	.
.	.	.	.	.	16b-/ 16d/	.	.	.	.	.	.	.	.	.	.
8B-\J	.	.	8B-/J	.	16b-/ 16d/	.	8d\J	.	.	.	.	.	.	.	.
.	.	.	.	.	16b-/JJ 16d/	.	.	.	.	.	.	.	.	.	.
*	*	*	*	*	*Xtremolo	*	*	*	*	*	*	*	*	*	*
=14	=14	=14	=14	=14	=14	=14	=14	=14	=14	=14	=14	=14	=14	=14	=14
8BB-/L	6 4	.	8B-/L	.	8B-/L	.	8e-/L	.	1B-/_	1b-\_	.	1g/	.	1ee-\	.
8BB-/	.	.	8B-/	.	8d/	.	8g/	.	.	.	.	.	.	.	.
8BB-/	.	.	8B-/	.	8f/	.	8b-/	.	.	.	.	.	.	.	.
8BB-/J	.	.	8B-/J	.	8b-/J	.	8ee-/J	.	.	.	.	.	.	.	.
8BB-/L	_ _	.	8B-/L	.	4b-\	.	2gg\	.	.	.	.	.	.	.	.
8BB-/	x	.	8B-/	.	.	.	.	.	.	.	.	.	.	.	.
*	*	*	*	*	*tremolo	*	*	*	*	*	*	*	*	*	*
8BB-/	.	.	8B-/	.	16b-/LL 16g/	.	.	.	.	.	.	.	.	.	.
.	.	.	.	.	16b-/ 16g/	.	.	.	.	.	.	.	.	.	.
8BB-/J	.	.	8B-/J	.	16b-/ 16g/	.	.	.	.	.	.	.	.	.	.
.	.	.	.	.	16b-/JJ 16g/	.	.	.	.	.	.	.	.	.	.
!	!	!	!	!	!LO:LB:g=original	!	!LO:LB:g=original	!	!	!LO:LB:g=original	!	!	!	!	!
=15	=15	=15	=15	=15	=15	=15	=15	=15	=15	=15	=15	=15	=15	=15	=15
8B-\L	_ _	.	8B-/L	.	16b-/LL 16g/	.	4.bb-\	.	1B-/_	1b-\_	.	1ee-\	.	1gg\	.
.	x	.	.	.	16b-/ 16g/	.	.	.	.	.	.	.	.	.	.
8B-\	.	.	8B-/	.	16b-/ 16g/	.	.	.	.	.	.	.	.	.	.
.	.	.	.	.	16b-/ 16g/	.	.	.	.	.	.	.	.	.	.
8B-\	.	.	8B-/	.	16b-/ 16g/	.	.	.	.	.	.	.	.	.	.
.	.	.	.	.	16b-/ 16g/	.	.	.	.	.	.	.	.	.	.
8B-\J	.	.	8B-/J	.	16b-/ 16g/	.	8gg\	.	.	.	.	.	.	.	.
.	.	.	.	.	16b-/JJ 16g/	.	.	.	.	.	.	.	.	.	.
8B-\L	_ _	.	8B-/L	.	16b-/LL 16g/	.	8ee-\L	.	.	.	.	.	.	.	.
.	x	.	.	.	16b-/ 16g/	.	.	.	.	.	.	.	.	.	.
8B-\	.	.	8B-/	.	16b-/ 16g/	.	8b-\	.	.	.	.	.	.	.	.
.	.	.	.	.	16b-/ 16g/	.	.	.	.	.	.	.	.	.	.
8B-\	.	.	8B-/	.	16b-/ 16g/	.	8g\	.	.	.	.	.	.	.	.
.	.	.	.	.	16b-/ 16g/	.	.	.	.	.	.	.	.	.	.
8B-\J	.	.	8B-/J	.	16b-/ 16g/	.	8e-\J	.	.	.	.	.	.	.	.
.	.	.	.	.	16b-/JJ 16g/	.	.	.	.	.	.	.	.	.	.
*	*	*	*	*	*Xtremolo	*	*	*	*	*	*	*	*	*	*
!	!	!	!	!	!	!	!	!	!LO:LB:g=original	!	!	!	!	!	!
=16	=16	=16	=16	=16	=16	=16	=16	=16	=16	=16	=16	=16	=16	=16	=16
8B-\L	5 3	.	8B-/L	.	8B-/L	.	8d/L	.	1B-/_	1b-\_	.	1dd\	.	1ff\	.
8B-\	.	.	8B-/	.	8d/	.	8f/	.	.	.	.	.	.	.	.
8B-\	.	.	8B-/	.	8f/	.	8b-/	.	.	.	.	.	.	.	.
8B-\J	.	.	8B-/J	.	8b-/J	.	8dd/J	.	.	.	.	.	.	.	.
8B-\L	_ _	.	8B-/L	.	4b-\	.	2ff\	.	.	.	.	.	.	.	.
8B-\	x	.	8B-/	.	.	.	.	.	.	.	.	.	.	.	.
*	*	*	*	*	*tremolo	*	*	*	*	*	*	*	*	*	*
8B-\	.	.	8B-/	.	16b-/LL 16d/	.	.	.	.	.	.	.	.	.	.
.	.	.	.	.	16b-/ 16d/	.	.	.	.	.	.	.	.	.	.
8B-\J	.	.	8B-/J	.	16b-/ 16d/	.	.	.	.	.	.	.	.	.	.
.	.	.	.	.	16b-/JJ 16d/	.	.	.	.	.	.	.	.	.	.
=17	=17	=17	=17	=17	=17	=17	=17	=17	=17	=17	=17	=17	=17	=17	=17
8B-\L	_ _	.	8B-/L	.	16b-/LL 16d/	.	4.bb-\	.	1B-/]	1b-\]	.	1b-\	.	1dd\	.
.	x	.	.	.	16b-/ 16d/	.	.	.	.	.	.	.	.	.	.
8B-\	.	.	8B-/	.	16b-/ 16d/	.	.	.	.	.	.	.	.	.	.
.	.	.	.	.	16b-/ 16d/	.	.	.	.	.	.	.	.	.	.
8B-\	.	.	8B-/	.	16b-/ 16d/	.	.	.	.	.	.	.	.	.	.
.	.	.	.	.	16b-/ 16d/	.	.	.	.	.	.	.	.	.	.
8B-\J	.	.	8B-/J	.	16b-/ 16d/	.	8ff\	.	.	.	.	.	.	.	.
.	.	.	.	.	16b-/JJ 16d/	.	.	.	.	.	.	.	.	.	.
8B-\L	.	.	8B-/L	.	16b-/LL 16d/	.	8dd\L	.	.	.	.	.	.	.	.
.	.	.	.	.	16b-/ 16d/	.	.	.	.	.	.	.	.	.	.
8B-\	.	.	8B-/	.	16b-/ 16d/	.	8b-\	.	.	.	.	.	.	.	.
.	.	.	.	.	16b-/ 16d/	.	.	.	.	.	.	.	.	.	.
8B-\	.	.	8B-/	.	16b-/ 16d/	.	8f\	.	.	.	.	.	.	.	.
.	.	.	.	.	16b-/ 16d/	.	.	.	.	.	.	.	.	.	.
8B-\J	.	.	8B-/J	.	16b-/ 16d/	.	8d\J	.	.	.	.	.	.	.	.
.	.	.	.	.	16b-/JJ 16d/	.	.	.	.	.	.	.	.	.	.
*Xtremolo	*	*	*	*	*Xtremolo	*	*	*	*	*	*	*	*	*	*
!	!	!	!LO:LB:g=original	!	!	!	!	!	!	!	!	!	!	!	!
=18!|:	=18	=18	=18	=18	=18	=18	=18	=18	=18	=18	=18!|:	=18	=18	=18	=18
8F\L	5 3	.	8f\L	.	4a/ 4f/	.	4c/	.	4f/	4cc\	.	4cc\	.	4ee-\	.
8F\	.	.	8f\	.	.	.	.	.	.	.	.	.	.	.	.
8F\	6 4	.	8f\	.	16b-\LL	.	16dd\LL	.	8f/L	8dd\L	.	4b-\	.	4dd\	.
.	.	.	.	.	16b-\	.	16dd\	.	.	.	.	.	.	.	.
8F\J	.	.	8f\J	.	16b-\	.	16dd\	.	8f/J	8dd\J	.	.	.	.	.
.	.	.	.	.	16b-\JJ	.	16dd\JJ	.	.	.	.	.	.	.	.
*	*	*	*	*	*tremolo	*	*tremolo	*	*	*	*	*	*	*	*
8F\L	5 3	.	8f\L	.	16a\LL	.	16cc\LL	.	4f/	4cc\	.	4a\	.	4cc\	.
.	.	.	.	.	16a\	.	16cc\	.	.	.	.	.	.	.	.
8F\	.	.	8f\	.	16a\	.	16cc\	.	.	.	.	.	.	.	.
.	.	.	.	.	16a\JJ	.	16cc\JJ	.	.	.	.	.	.	.	.
8F\	6 4	.	8f\	.	16b-\LL	.	16dd\LL	.	8f/L	8dd\L	.	4b-\	.	4dd\	.
.	.	.	.	.	16b-\	.	16dd\	.	.	.	.	.	.	.	.
8F\J	.	.	8f\J	.	16b-\	.	16dd\	.	8f/J	8dd\J	.	.	.	.	.
.	.	.	.	.	16b-\JJ	.	16dd\JJ	.	.	.	.	.	.	.	.
*	*	*	*	*	*Xtremolo	*	*Xtremolo	*	*	*	*	*	*	*	*
!LO:LB:g=original	!	!	!	!	!	!	!	!	!	!	!	!	!	!	!
=19	=19	=19	=19	=19	=19	=19	=19	=19	=19	=19	=19	=19	=19	=19	=19
8F\L	5 3	.	8f\L	.	4a/ 4f/	.	4cc/ 4f/	.	4f/	4cc\	.	4a\	.	4cc\	.
8F\	_ _	.	8f\	.	.	.	.	.	.	.	.	.	.	.	.
8F\	.	.	8f\	.	4a/ 4f/	.	4cc/ 4f/	.	4f/	4cc\	.	2dd\	.	2ff\	.
8F\J	.	.	8f\J	.	.	.	.	.	.	.	.	.	.	.	.
8F\L	.	.	8f\L	.	2r	.	2r	.	2r	2r	.	.	.	.	.
8F\	.	.	8f\	.	.	.	.	.	.	.	.	.	.	.	.
8F\	6 4	.	8f\	.	.	.	.	.	.	.	.	8cc\L	.	8ee-\L	.
8F\J	.	.	8f\J	.	.	.	.	.	.	.	.	8b-\J	.	8dd\J	.
=20:|!	=20	=20	=20	=20	=20	=20	=20	=20	=20	=20	=20:|!	=20	=20	=20	=20
!LO:TX:t=P:problem:takty 20-21 zapisane jako repetycja tektów 18-19	!	!	!	!	!	!	!	!	!	!	!	!	!	!	!
8F\Lyy	5 3	.	8f\L	.	4A/	.	4c/	.	4f/	4cc\	.	4a\	.	4cc\	.
8F\yy	.	.	8f\	.	.	.	.	.	.	.	.	.	.	.	.
8F\yy	6 4	.	8f\	.	16b-\LL	.	16dd\LL	.	8b-\L	8dd\L	.	8b-\L	.	8dd\L	.
.	.	.	.	.	16b-\	.	16dd\	.	.	.	.	.	.	.	.
8F\Jyy	.	.	8f\J	.	16b-\	.	16dd\	.	8b-\J	8dd\J	.	8b-\J	.	8dd\J	.
.	.	.	.	.	16b-\JJ	.	16dd\JJ	.	.	.	.	.	.	.	.
*	*	*	*	*	*tremolo	*	*tremolo	*	*	*	*	*	*	*	*
8F\Lyy	5 3	.	8f\L	.	16a\LL	.	16cc\LL	.	4f/	4cc\	.	4a\	.	4cc\	.
.	.	.	.	.	16a\	.	16cc\	.	.	.	.	.	.	.	.
8F\yy	.	.	8f\	.	16a\	.	16cc\	.	.	.	.	.	.	.	.
.	.	.	.	.	16a\JJ	.	16cc\JJ	.	.	.	.	.	.	.	.
8F\yy	6 4	.	8f\	.	16b-\LL	.	16dd\LL	.	8b-\L	8dd\L	.	8b-\L	.	8dd\L	.
.	.	.	.	.	16b-\	.	16dd\	.	.	.	.	.	.	.	.
8F\Jyy	.	.	8f\J	.	16b-\	.	16dd\	.	8b-\J	8dd\J	.	8b-\J	.	8dd\J	.
.	.	.	.	.	16b-\JJ	.	16dd\JJ	.	.	.	.	.	.	.	.
*	*	*	*	*	*Xtremolo	*	*Xtremolo	*	*	*	*	*	*	*	*
=21	=21	=21	=21	=21	=21	=21	=21	=21	=21	=21	=21	=21	=21	=21	=21
8F\Lyy	5 3	.	8f\L	.	4a/ 4f/	.	4cc/ 4f/	.	4f/	4cc\	.	4a\	.	4cc\	.
8F\yy	_ _	.	8f\	.	.	.	.	.	.	.	.	.	.	.	.
8F\yy	.	.	8f\	.	4a/ 4f/	.	4cc/ 4f/	.	4f/	4cc\	.	2dd\	.	2ff\	.
8F\Jyy	.	.	8f\J	.	.	.	.	.	.	.	.	.	.	.	.
8F\Lyy	.	.	8f\L	.	2r	.	2r	.	2r	2r	.	.	.	.	.
8F\yy	.	.	8f\	.	.	.	.	.	.	.	.	.	.	.	.
8F\yy	6 4	.	8f\	.	.	.	.	.	.	.	.	8cc\L	.	8ee-\L	.
8F\Jyy	.	.	8f\J	.	.	.	.	.	.	.	.	8b-\J	.	8dd\J	.
!	!	!	!	!	!	!	!LO:LB:g=original	!	!	!	!	!	!	!	!
=22	=22	=22	=22	=22	=22	=22	=22	=22	=22	=22	=22	=22	=22	=22	=22
*	*	*	*	*	*tremolo	*	*tremolo	*	*	*	*	*	*	*	*
8F\L	5 3	.	8f\L	.	16a\LL	.	16cc/LL 16f/	.	[1f/	[1ff\	.	4a\	.	4cc\	.
.	.	.	.	.	16a\	.	16cc/ 16f/	.	.	.	.	.	.	.	.
8F\	.	.	8f\	.	16a\	.	16cc/ 16f/	.	.	.	.	.	.	.	.
.	.	.	.	.	16a\JJ	.	16cc/JJ 16f/	.	.	.	.	.	.	.	.
8F\	6 4	.	8f\	.	16b-\LL	.	16dd/LL 16f/	.	.	.	.	4b-\	.	4dd\	.
.	.	.	.	.	16b-\	.	16dd/ 16f/	.	.	.	.	.	.	.	.
8F\J	.	.	8f\J	.	16b-\	.	16dd/ 16f/	.	.	.	.	.	.	.	.
.	.	.	.	.	16b-\JJ	.	16dd/JJ 16f/	.	.	.	.	.	.	.	.
!	!	!	!	!	!LO:LB:g=original	!	!	!	!	!	!	!	!	!	!
*tremolo	*	*	*	*	*	*	*	*	*	*	*	*	*	*	*
8F\L	5 3	.	8f\L	.	16a\LL	.	16cc/LL 16f/	.	.	.	.	4a\	.	4cc\	.
.	.	.	.	.	16a\	.	16cc/ 16f/	.	.	.	.	.	.	.	.
8F\	.	.	8f\	.	16a\	.	16cc/ 16f/	.	.	.	.	.	.	.	.
.	.	.	.	.	16a\JJ	.	16cc/JJ 16f/	.	.	.	.	.	.	.	.
8F\	6 4	.	8f\	.	16b-\LL	.	16dd/LL 16f/	.	.	.	.	8b-\L	.	8dd\L	.
.	.	.	.	.	16b-\	.	16dd/ 16f/	.	.	.	.	.	.	.	.
8F\J	.	.	8f\J	.	16b-\	.	16dd/ 16f/	.	.	.	.	8b-\J	.	8dd\J	.
.	.	.	.	.	16b-\JJ	.	16dd/JJ 16f/	.	.	.	.	.	.	.	.
*Xtremolo	*	*	*Xtremolo	*	*Xtremolo	*	*Xtremolo	*	*	*	*	*	*	*	*
!	!	!	!	!	!	!	!	!	!	!	!	!LO:LB:g=original	!	!LO:LB:g=original	!
=23	=23	=23	=23	=23	=23	=23	=23	=23	=23	=23	=23	=23	=23	=23	=23
4F\	5 3	.	4f\	.	4a/ 4f/	.	4cc/ 4f/	.	4f/]	4ff\]	.	4a\	.	4cc\	.
4F\	.	.	4F/	.	4a/ 4f/	.	4ff/ 4a/ 4f/	.	4f/	4cc\	.	8a\L	.	8cc\L	.
.	.	.	.	.	.	.	.	.	.	.	.	8a\J	.	8cc\J	.
4F\	.	.	4f\	.	4a/ 4f/	.	4ff/ 4a/ 4f/	.	4f/	4cc\	.	4a\	.	4cc\	.
4r	.	.	4r	.	4r	.	4r	.	4r	4r	.	4r	.	4r	.
=24	=24	=24	=24	=24	=24	=24	=24	=24	=24	=24	=24	=24	=24	=24	=24
*	*	*	*tremolo	*	*	*	*	*	*	*	*	*	*	*	*
!	!	!LO:DY:t=p&colon;	!	!LO:DY:rj	!LO:TX:a:t=Solo	!	!LO:TX:a:t=Solo	!	!LO:TX:a:t=4	!LO:TX:a:t=4	!	!LO:TX:a:t=3	!	!LO:TX:a:t=3	!
8F\L	.	p	8f\L	p	2a\	.	2cc\	.	00r	00r	.	0r	.	0r	.
8F\	.	.	8f\	.	.	.	.	.	.	.	.	.	.	.	.
8F\	.	.	8f\	.	.	.	.	.	.	.	.	.	.	.	.
8F\J	.	.	8f\J	.	.	.	.	.	.	.	.	.	.	.	.
*tremolo	*	*	*	*	*	*	*	*	*	*	*	*	*	*	*
8F\L	.	.	8f\L	.	8a\L	.	8cc\L	.	.	.	.	.	.	.	.
8F\	.	.	8f\	.	8b-\	.	8dd\	.	.	.	.	.	.	.	.
8F\	.	.	8f\	.	8cc\	.	8ee-\	.	.	.	.	.	.	.	.
8F\J	.	.	8f\J	.	8dd\J	.	8ff\J	.	.	.	.	.	.	.	.
=25	=25	=25	=25	=25	=25	=25	=25	=25	=25	=25	=25	=25	=25	=25	=25
8F\L	.	.	8f\L	.	(8dd\L	.	(8ff\L	.	.	.	.	.	.	.	.
8F\	.	.	8f\	.	8cc\)	.	8een\)	.	.	.	.	.	.	.	.
!	!	!	!	!	!LO:TX:a:t=|	!	!LO:TX:a:t=|	!	!	!	!	!	!	!	!
8F\	.	.	8f\	.	8b-\	.	8dd\	.	.	.	.	.	.	.	.
!	!	!	!	!	!LO:TX:a:t=|	!	!LO:TX:a:t=|	!	!	!	!	!	!	!	!
8F\J	.	.	8f\J	.	8a\J	.	8cc\J	.	.	.	.	.	.	.	.
8F\L	.	.	8f\L	.	8a/L	.	2cc\	.	.	.	.	.	.	.	.
8F\	.	.	8f\	.	8f/	.	.	.	.	.	.	.	.	.	.
8F\	.	.	8f\	.	8a/	.	.	.	.	.	.	.	.	.	.
8F\J	.	.	8f\J	.	8f/J	.	.	.	.	.	.	.	.	.	.
*Xtremolo	*	*	*Xtremolo	*	*	*	*	*	*	*	*	*	*	*	*
=26	=26	=26	=26	=26	=26	=26	=26	=26	=26	=26	=26	=26	=26	=26	=26
!	!	!	!LO:N:acc=#	!	!	!	!	!	!	!	!	!	!	!	!
4C\	.	.	2en\	.	2g/	.	8b-\L	.	.	.	.	1r	.	1r	.
.	.	.	.	.	.	.	8een\	.	.	.	.	.	.	.	.
4D\	.	.	.	.	.	.	8gg\	.	.	.	.	.	.	.	.
.	.	.	.	.	.	.	8ff\J	.	.	.	.	.	.	.	.
!LO:SIC:s:v=s=4E	!	!	!	!	!	!	!	!	!	!	!	!	!	!	!
4E-\	.	.	4g\	.	4b-/	.	8ee\L	.	.	.	.	.	.	.	.
.	.	.	.	.	.	.	8dd\	.	.	.	.	.	.	.	.
4C\	.	.	4e\	.	4g/	.	8cc\	.	.	.	.	.	.	.	.
.	.	.	.	.	.	.	8b-\J	.	.	.	.	.	.	.	.
=27	=27	=27	=27	=27	=27	=27	=27	=27	=27	=27	=27	=27	=27	=27	=27
4F\	.	.	4f\	.	(8g/L	.	(8b-\L	.	.	.	.	2r	.	2r	.
.	.	.	.	.	8f/J)	.	8a\)	.	.	.	.	.	.	.	.
!	!	!	!	!	!LO:TX:a:t=|	!	!LO:TX:a:t=|	!	!	!	!	!	!	!	!
4FF/	.	.	4F/	.	8b-\L	.	8dd\	.	.	.	.	.	.	.	.
!	!	!	!	!	!LO:TX:a:t=|	!	!LO:TX:a:t=|	!	!	!	!	!	!	!	!
.	.	.	.	.	8a\J	.	8cc\J	.	.	.	.	.	.	.	.
4F\	.	.	4f\	.	2r	.	4cc\	.	.	.	.	8r	.	8r	.
.	.	.	.	.	.	.	.	.	.	.	.	8a\L	.	8cc\L	.
4r	.	.	4r	.	.	.	4r	.	.	.	.	8cc\	.	8ff\	.
.	.	.	.	.	.	.	.	.	.	.	.	8ff\J	.	8aa\J	.
!	!	!	!LO:LB:g=original	!	!	!	!	!	!	!	!	!	!	!	!
=28	=28	=28	=28	=28	=28	=28	=28	=28	=28	=28	=28	=28	=28	=28	=28
*	*	*	*	*	*^	*	*	*	*	*	*	*	*	*	*
*	*	*	*tremolo	*	*	*	*	*	*	*	*	*	*	*	*	*
!	!	!LO:DY:t=f	!	!	!	!	!	!	!LO:DY:rj	!	!	!	!	!	!	!
4r	.	f	8c\L	f	4c/	2ryy	f	4b-\	f	1cc\	1cc\	.	(8aa\L	.	(8ccc\L	.
.	.	.	8c\	.	.	.	.	.	.	.	.	.	8gg\J)	.	8bb-\J)	.
*	*	*	*	*	*tremolo	*	*	*	*	*	*	*	*	*	*	*
4C\	.	.	8c\	.	16b-/LL 16g/	.	.	(16bb-\LL	.	.	.	.	2gg\	.	2bb-\	.
.	.	.	.	.	16b-/ 16g/	.	.	16aa\	.	.	.	.	.	.	.	.
.	.	.	8c\J	.	16b-/ 16g/	.	.	16gg\	.	.	.	.	.	.	.	.
.	.	.	.	.	16b-/JJ 16g/	.	.	16ff\JJ)	.	.	.	.	.	.	.	.
*	*	*	*Xtremolo	*	*	*	*	*	*	*	*	*	*	*	*	*
4En\	.	.	8cc\L	.	16b-/LL	16g\LL	.	8een\L	.	.	.	.	.	.	.	.
.	.	.	.	.	16b-/	16g\	.	.	.	.	.	.	.	.	.	.
.	.	.	8cc\	.	16b-/	16g\	.	8cc\	.	.	.	.	.	.	.	.
.	.	.	.	.	16b-/	16g\	.	.	.	.	.	.	.	.	.	.
4C\	.	.	8b-\	.	16b-/	16g\	.	8dd\	.	.	.	.	4gg\	.	4bb-\	.
.	.	.	.	.	16b-/	16g\	.	.	.	.	.	.	.	.	.	.
.	.	.	8b-\J	.	16b-/	16g\	.	8ee\J	.	.	.	.	.	.	.	.
.	.	.	.	.	16b-/JJ	16g\JJ	.	.	.	.	.	.	.	.	.	.
!LO:LB:g=original	!	!	!	!	!	!	!	!LO:LB:g=original	!	!	!	!	!	!	!	!
=29	=29	=29	=29	=29	=29	=29	=29	=29	=29	=29	=29	=29	=29	=29	=29	=29
4r	.	.	8a\L	.	4c/	2ryy	.	4ff\	.	1f/	1cc\	.	(8gg\L	.	(8bb-\L	.
.	.	.	8a\	.	.	.	.	.	.	.	.	.	8ff\J)	.	8aa\J)	.
4F\	.	.	8a\	.	16a/LL 16f/	.	.	(16ccc\LL	.	.	.	.	2ff\	.	2aa\	.
.	.	.	.	.	16a/ 16f/	.	.	16bb-\	.	.	.	.	.	.	.	.
.	.	.	8a\J	.	16a/ 16f/	.	.	16aa\	.	.	.	.	.	.	.	.
.	.	.	.	.	16a/JJ 16f/	.	.	16bb-\JJ)	.	.	.	.	.	.	.	.
4A\	.	.	2f\	.	16a/LL	16f\LL	.	8aa\L	.	.	.	.	.	.	.	.
.	.	.	.	.	16a/	16f\	.	.	.	.	.	.	.	.	.	.
.	.	.	.	.	16a/	16f\	.	8ff\	.	.	.	.	.	.	.	.
.	.	.	.	.	16a/	16f\	.	.	.	.	.	.	.	.	.	.
4F\	.	.	.	.	16a/	16f\	.	8gg\	.	.	.	.	4ff\	.	4aa\	.
.	.	.	.	.	16a/	16f\	.	.	.	.	.	.	.	.	.	.
.	.	.	.	.	16a/	16f\	.	8aa\J	.	.	.	.	.	.	.	.
.	.	.	.	.	16a/JJ	16f\JJ	.	.	.	.	.	.	.	.	.	.
!	!	!	!	!	!LO:LB:g=original	!	!	!	!	!	!	!	!	!	!	!
=30	=30	=30	=30	=30	=30	=30	=30	=30	=30	=30	=30	=30	=30	=30	=30	=30
4r	.	.	4r	.	4c/	4ryy	.	4gg\	.	1cc\	1cc\	.	4b-\	.	(8aa\L	.
.	.	.	.	.	.	.	.	.	.	.	.	.	.	.	8gg\J)	.
*	*	*	*	*	*	*tremolo	*	*	*	*	*	*	*	*	*	*
4C\	.	.	4g\	.	16b-/LL	16g\LL	.	(16bb-\LL	.	.	.	.	2b-\	.	2gg\	.
.	.	.	.	.	16b-/	16g\	.	16aa\	.	.	.	.	.	.	.	.
.	.	.	.	.	16b-/	16g\	.	16gg\	.	.	.	.	.	.	.	.
.	.	.	.	.	16b-/JJ	16g\JJ	.	16ff\JJ)	.	.	.	.	.	.	.	.
4En\	.	.	4en\	.	16b-/LL	16g\LL	.	8een\L	.	.	.	.	.	.	.	.
.	.	.	.	.	16b-/	16g\	.	.	.	.	.	.	.	.	.	.
.	.	.	.	.	16b-/	16g\	.	8cc\	.	.	.	.	.	.	.	.
.	.	.	.	.	16b-/	16g\	.	.	.	.	.	.	.	.	.	.
4C\	.	.	4c\	.	16b-/	16g\	.	8dd\	.	.	.	.	4b-\	.	4gg\	.
.	.	.	.	.	16b-/	16g\	.	.	.	.	.	.	.	.	.	.
.	.	.	.	.	16b-/	16g\	.	8ee\J	.	.	.	.	.	.	.	.
.	.	.	.	.	16b-/JJ	16g\JJ	.	.	.	.	.	.	.	.	.	.
*	*	*	*	*	*Xtremolo	*Xtremolo	*	*	*	*	*	*	*	*	*	*
*	*	*	*	*	*v	*v	*	*	*	*	*	*	*	*	*	*
!	!	!	!	!	!	!	!	!	!	!	!	!LO:LB:g=original	!	!LO:LB:g=original	!
=31	=31	=31	=31	=31	=31	=31	=31	=31	=31	=31	=31	=31	=31	=31	=31
!	!	!	!LO:TX:a:t=f	!	!	!	!	!	!	!	!	!	!	!	!
4F\	.	.	4e-\	.	4a/ 4f/	.	4ff/ 4a/	.	4f/	4cc\	.	4a\	.	4ff\	.
!	!	!	!LO:TX:a:t=f	!	!	!	!	!	!	!	!	!LO:TX:a:t=h	!	!	!
4F\	.	.	8e-\L	.	4f/ 4A/	.	4ff/ 4a/	.	8f/L	8cc\L	.	2a\	.	4.ff\	.
!	!	!	!LO:TX:a:t=f	!	!	!	!	!	!	!	!	!	!	!	!
.	.	.	8e-\J	.	.	.	.	.	8f/J	8cc\J	.	.	.	.	.
*	*	*	*tremolo	*	*	*	*	*	*	*	*	*	*	*	*
!	!	!	!LO:TX:a:t=f	!	!	!	!	!	!	!	!	!	!	!	!
4F\	.	.	8e-\L	.	4f/ 4A/	.	4ff/ 4a/	.	4f/	[2cc\	.	.	.	.	.
.	.	.	8e-\	.	.	.	.	.	.	.	.	.	.	8cc\L	.
4r	.	.	8e-\	.	4r	.	4r	.	[4cc\	.	.	8cc\L	.	8ff\	.
.	.	.	8e-\J	.	.	.	.	.	.	.	.	8ff\J	.	8aa\J	.
*	*	*	*Xtremolo	*	*	*	*	*	*	*	*	*	*	*	*
!	!	!	!	!	!	!	!	!	!LO:LB:g=original	!	!	!	!	!	!
=32	=32	=32	=32	=32	=32	=32	=32	=32	=32	=32	=32	=32	=32	=32	=32
8C\L	.	.	8c\L	.	8c/L	.	4b-\	.	1cc\]	1cc\]	.	(8aa\L	.	(8ccc\L	.
!	!	!	!	!	!LO:SIC:s:v=s=8en	!	!	!	!	!	!	!	!	!	!
8C\	.	.	8c\	.	8e-/	.	.	.	.	.	.	8gg\J)	.	8bb-\J)	.
8En\	.	.	8c\	.	8g/	.	(16bb-\LL	.	.	.	.	2gg\	.	2bb-\	.
.	.	.	.	.	.	.	16aa\	.	.	.	.	.	.	.	.
8E\J	.	.	8c\J	.	8a/J	.	16gg\	.	.	.	.	.	.	.	.
.	.	.	.	.	.	.	16ff\JJ)	.	.	.	.	.	.	.	.
8G\L	.	.	8cc\L	.	2b-\	.	8een\L	.	.	.	.	.	.	.	.
8G\	.	.	8cc\	.	.	.	8cc\	.	.	.	.	.	.	.	.
8E\	.	.	8b-\	.	.	.	8dd\	.	.	.	.	4gg\	.	4bb-\	.
8E\J	.	.	8b-\J	.	.	.	8ee\J	.	.	.	.	.	.	.	.
=33	=33	=33	=33	=33	=33	=33	=33	=33	=33	=33	=33	=33	=33	=33	=33
!	!	!	!LO:TX:a:t=a	!	!	!	!	!	!	!	!	!	!	!	!
8C\L	.	.	2a\	.	2c/	.	4ff\	.	1f/	1cc\	.	(8gg\L	.	(8bb-\L	.
8C\	.	.	.	.	.	.	.	.	.	.	.	8ff\J)	.	8aa\J)	.
8F\	.	.	.	.	.	.	(16ccc\LL	.	.	.	.	2ff\	.	2aa\	.
.	.	.	.	.	.	.	16bb-\	.	.	.	.	.	.	.	.
8F\J	.	.	.	.	.	.	16aa\	.	.	.	.	.	.	.	.
.	.	.	.	.	.	.	16bb-\JJ)	.	.	.	.	.	.	.	.
!	!	!	!LO:TX:a:t=f	!	!	!	!	!	!	!	!	!	!	!	!
8A\L	.	.	2f\	.	2a\	.	8aa\L	.	.	.	.	.	.	.	.
8A\	.	.	.	.	.	.	8ff\	.	.	.	.	.	.	.	.
8F\	.	.	.	.	.	.	8gg\	.	.	.	.	4ff\	.	4aa\	.
8F\J	.	.	.	.	.	.	8aa\J	.	.	.	.	.	.	.	.
=34	=34	=34	=34	=34	=34	=34	=34	=34	=34	=34	=34	=34	=34	=34	=34
!	!	!	!LO:TX:a:t=g	!	!	!	!	!	!	!	!	!	!	!	!
8C\L	.	.	2g\	.	2c/	.	4gg\	.	1cc\	1cc\	.	4b-\	.	(8aa\L	.
8C\	.	.	.	.	.	.	.	.	.	.	.	.	.	8gg\J)	.
8En\	.	.	.	.	.	.	(16bb-\LL	.	.	.	.	2b-\	.	2gg\	.
.	.	.	.	.	.	.	16aa\	.	.	.	.	.	.	.	.
8E\J	.	.	.	.	.	.	16gg\	.	.	.	.	.	.	.	.
.	.	.	.	.	.	.	16ff\JJ)	.	.	.	.	.	.	.	.
!	!	!	!	!	!	!	!LO:LB:g=original	!	!	!	!	!	!	!	!
!	!	!	!LO:TX:a:t=c	!	!	!	!	!	!	!	!	!	!	!	!
8G\L	.	.	2c/	.	2g/	.	8een\L	.	.	.	.	.	.	.	.
8G\	.	.	.	.	.	.	8cc\	.	.	.	.	.	.	.	.
8E\	.	.	.	.	.	.	8dd\	.	.	.	.	4b-\	.	4gg\	.
8E\J	.	.	.	.	.	.	8ee\J	.	.	.	.	.	.	.	.
!	!	!	!	!	!	!	!	!	!	!	!	!LO:LB:g=original	!	!	!
=35	=35	=35	=35	=35	=35	=35	=35	=35	=35	=35	=35	=35	=35	=35	=35
4F\	.	.	4f\	.	4f/ 4A/	.	4ff/ 4a/	.	4f/	4cc\	.	4a\	.	4ff\	.
4F\	.	.	8f\L	.	4f/ 4A/	.	4.ff/ 4.a/	.	8f/L	8cc\L	.	4a\	.	4ff\	.
.	.	.	8f\J	.	.	.	.	.	8f/J	8cc\J	.	.	.	.	.
4F\	.	.	4f\	.	4f/ 4A/	.	.	.	4f/	4cc\	.	4a\	.	4ff\	.
.	.	.	.	.	.	.	8cc\L	.	.	.	.	.	.	.	.
4r	.	.	4r	.	4r	.	8ff\	p	4rf	4r	.	4r	.	4r	.
.	.	.	.	.	.	.	8gg\J	.	.	.	.	.	.	.	.
!	!	!	!LO:LB:g=original	!	!	!	!	!	!	!	!	!	!	!	!
=36	=36	=36	=36	=36	=36	=36	=36	=36	=36	=36	=36	=36	=36	=36	=36
!	!	!	!LO:TX:a:t=1	!	!	!LO:DY:rj	!	!	!	!	!	!LO:TX:a:t=1	!	!LO:TX:a:t=1	!
4F\	.	p	1r	.	8ff\L	p	2aa\	.	1r	1r	.	1r	.	1r	.
.	.	.	.	.	8cc\	.	.	.	.	.	.	.	.	.	.
4A\	6	.	.	.	8a\	.	.	.	.	.	.	.	.	.	.
.	.	.	.	.	8cc\J	.	.	.	.	.	.	.	.	.	.
4B-\	6 5	.	.	.	4.b-\	.	8gg\L	.	.	.	.	.	.	.	.
.	.	.	.	.	.	.	8ff\	.	.	.	.	.	.	.	.
4d\	5 3	.	.	.	.	.	8gg\	.	.	.	.	.	.	.	.
.	.	.	.	.	8cc\	.	8aa\J	.	.	.	.	.	.	.	.
!LO:LB:g=original	!	!	!	!	!	!	!	!	!	!	!	!	!	!	!
=37	=37	=37	=37	=37	=37	=37	=37	=37	=37	=37	=37	=37	=37	=37	=37
!	!	!	!	!	!	!LO:DY:rj	!	!LO:DY:t=f	!	!	!	!	!	!	!
4F\	.	f	4r	.	4a/ 4f/	f	4ff/ 4a/	f	4r	4r	.	2r	.	2r	.
4F\	.	.	8f\L	.	4a/ 4f/	.	4.ff/ 4.a/	.	8f/L	8cc\L	.	.	.	.	.
.	.	.	8f\J	.	.	.	.	.	8f/J	8cc\J	.	.	.	.	.
4F\	.	.	4f\	.	4a/ 4f/	.	.	.	4f/	4cc\	.	8r	.	8r	.
.	.	.	.	.	.	.	8cc\L	.	.	.	.	8cc\L	p	8ff\L	p
4r	.	.	4r	.	4r	.	8ff\	p	4r	4r	.	8ff\	.	8aa\	.
.	.	.	.	.	.	.	8gg\J	.	.	.	.	8gg\J	.	8bb-\J	.
!!pagebreak:original
=38	=38	=38	=38	=38	=38	=38	=38	=38	=38	=38	=38	=38	=38	=38	=38
!	!	!	!LO:TX:a:t=1	!	!	!LO:DY:rj	!	!	!	!	!	!	!	!	!
4F\	.	p	1r	.	8ff\L	p	2aa\	.	1r	1r	.	2aa\	.	2ccc\	.
.	.	.	.	.	8cc\	.	.	.	.	.	.	.	.	.	.
4A\	6	.	.	.	8a\	.	.	.	.	.	.	.	.	.	.
.	.	.	.	.	8cc\J	.	.	.	.	.	.	.	.	.	.
!	!	!	!	!	!LO:LB:g=original	!	!	!	!	!	!	!	!	!	!
4B-\	6 5	.	.	.	4.b-\	.	8gg\L	.	.	.	.	8gg\L	.	8bb-\L	.
.	.	.	.	.	.	.	8ff\	.	.	.	.	8ff\	.	8aa\	.
4d\	5 3	.	.	.	.	.	8gg\	.	.	.	.	8gg\	.	8bb-\	.
.	.	.	.	.	8cc\	.	8bb-\J	.	.	.	.	8aa\J	.	8ccc\J	.
=39	=39	=39	=39	=39	=39	=39	=39	=39	=39	=39	=39	=39	=39	=39	=39
4F\	.	.	4r	.	4a/	.	4ff/ 4a/	.	4r	4r	.	4ff\	f	4aa\	f
4F\	.	.	8f\L	.	4f/ 4A/	.	4ff/ 4a/ 4f/	.	8f/L	8cc\L	.	8ff\L	.	8aa\L	.
.	.	.	8f\J	.	.	.	.	.	8f/J	8cc\J	.	8ff\J	.	8aa\J	.
4F\	.	.	4f\	.	4f/ 4A/	.	4ff/ 4a/ 4f/	.	4f/	4cc\	.	4ff\	.	4aa\	.
4r	.	.	4r	.	4r	.	4r	.	4r	4r	.	4r	.	4r	.
!	!	!	!	!	!	!	!	!	!	!	!	!	!	!LO:LB:g=original	!
=40:|!|:	=40:|!|:	=40:|!|:	=40:|!|:	=40:|!|:	=40:|!|:	=40:|!|:	=40:|!|:	=40:|!|:	=40:|!|:	=40:|!|:	=40:|!|:	=40:|!|:	=40:|!|:	=40:|!|:	=40:|!|:
!	!	!	!LO:TX:a:t=f	!	!LO:TX:a:t=|	!	!	!	!	!	!	!	!	!	!
4.F'\	.	.	4.f\	.	4.ff\	.	4.ff'\	.	4.f'/	4.ff'\	.	4.ff'\	.	4.ff'\	.
!	!	!	!LO:TX:a:t=c	!	!	!	!	!	!	!	!	!	!	!	!
8C'/	.	.	8c\	.	8cc'\	.	8cc'\	.	8cc'\	8cc'\	.	8cc'\	.	8cc'\	.
!	!	!	!	!	!	!	!	!	!LO:TX:t=P:problem:mixed beam	!	!	!	!	!	!
8AA'/L	.	.	8A/L	.	8a'/L	.	8a'/L	.	8f'/L	8ff'\L	.	8a'\L	.	8a'\L	.
8C'/	.	.	8c/	.	8cc'/	.	8cc'/	.	8cc'\	8cc'\	.	8cc'\	.	8cc'\	.
8AA'/	.	.	8A/	.	8a'/	.	8a'/	.	8f'\	8ff'\	.	8a'\	.	8a'\	.
8FF'/J	.	.	8F/J	.	8f'/J	.	8f'/J	.	8cc'\J	8cc'\J	.	8f'\J	.	8f'\J	.
=41	=41	=41	=41	=41	=41	=41	=41	=41	=41	=41	=41	=41	=41	=41	=41
4CC/	.	.	4C/	.	4c/	.	4c/	.	4cc\	4cc\	.	4c/	.	4c/	.
4r	.	.	4r	.	8c/L	.	2cc\	.	4r	4r	.	4r	.	4r	.
.	.	.	.	.	8d/J	.	.	.	.	.	.	.	.	.	.
4r	.	.	4r	.	4en/	.	.	.	2r	2r	.	2gg\	.	2bb-\	.
4En\	.	.	8en\L	.	4g/	.	8dd\L	.	.	.	.	.	.	.	.
.	.	.	8e\J	.	.	.	8een\J	.	.	.	.	.	.	.	.
!	!	!	!	!	!	!	!	!	!	!LO:LB:g=original	!	!	!	!	!
=42	=42	=42	=42	=42	=42	=42	=42	=42	=42	=42	=42	=42	=42	=42	=42
4F\	.	.	8f\L	.	8f/L	.	8ff\L	.	4r	4r	.	8ff\	.	8aa\	.
.	.	.	8f\	.	8c/J	.	8cc\	.	.	.	.	8r	.	8r	.
*	*	*	*	*	*	*	*	*	*2\right	*	*	*	*	*	*
4BB-/	8 6	.	8B-\	.	4g/	.	8dd\	.	2cc\	2cc\	.	8b-\	.	8gg\	.
.	.	.	8B-\J	.	.	.	8b-\J	.	.	.	.	8r	.	8r	.
!	!	!	!	!	!	!	!LO:LB:g=original	!	!	!	!	!	!	!	!
4C/ 4CC/	6 4	.	8c\L	.	4f/	.	8a/L	.	.	.	.	8a\	.	8ff\	.
.	.	.	8c\	.	.	.	8cc/	.	.	.	.	8r	.	8r	.
4C#X/	5 3	.	8c#X\	.	8e-/L	.	8b-/	.	4cc\	4cc\	.	8g\	.	8eeX\	.
.	.	.	8c#\J	.	8c#X/J	.	8g/J	.	.	.	.	8r	.	8r	.
!	!	!	!	!	!	!	!	!	!LO:LB:g=original	!	!	!LO:LB:g=original	!	!	!
=43	=43	=43	=43	=43	=43	=43	=43	=43	=43	=43	=43	=43	=43	=43	=43
4D\	3	.	4d\	.	4d/	.	4f/	.	4f/	4dd\	.	4f/	.	4dd'\	.
4r	.	.	4r	.	8cn/L	.	2cc\	.	4r	4r	.	4r	.	4r	.
.	.	.	.	.	8d/J	.	.	.	.	.	.	.	.	.	.
4r	.	.	4r	.	4en/	.	.	.	2r	2r	.	2gg\	.	2bb-\	.
4En\	.	.	8en\L	.	4g/	.	8dd\L	.	.	.	.	.	.	.	.
.	.	.	8e\J	.	.	.	8een\J	.	.	.	.	.	.	.	.
=44	=44	=44	=44	=44	=44	=44	=44	=44	=44	=44	=44	=44	=44	=44	=44
4F\	.	.	8f\L	.	8f/L	.	8ff\L	.	4r	4r	.	4ff\	.	4aa\	.
.	.	.	8f\	.	8c/J	.	8cc\	.	.	.	.	.	.	.	.
4B-\	6	.	8b-\	.	4g/	.	8dd\	.	2cc\	2cc\	.	4b-\	.	4gg\	.
.	.	.	8b-\J	.	.	.	8b-\J	.	.	.	.	.	.	.	.
!	!	!	!LO:LB:g=original	!	!	!	!	!	!	!	!	!	!	!	!
4c\	6 4	.	8g\L	.	8f/L	.	8a/L	.	.	.	.	4a\	.	4ff\	.
.	.	.	8g\	.	8a/J	.	8cc/	.	.	.	.	.	.	.	.
4C/	5 3	.	8en\	.	8g/L	.	8b-/	.	4cc\	4cc\	.	4g\	.	4eeX\	.
.	.	.	8e\J	.	8B-/J	.	8g/J	.	.	.	.	.	.	.	.
!LO:LB:g=original	!	!	!	!	!LO:LB:g=original	!	!	!	!	!	!	!	!	!	!
=45	=45	=45	=45	=45	=45	=45	=45	=45	=45	=45	=45	=45	=45	=45	=45
*tremolo	*	*	*tremolo	*	*	*	*	*	*	*	*	*	*	*	*
8F\L	.	.	8f\L	.	16A/LL	.	16f/LL	.	4f/	4cc\	.	4a\	.	[<1ff\	.
.	.	.	.	.	16A/	.	16f/	.	.	.	.	.	.	.	.
8F\	.	.	8f\	.	16A/	.	16f/	.	.	.	.	.	.	.	.
.	.	.	.	.	16A/JJ	.	16f/JJ	.	.	.	.	.	.	.	.
*	*	*	*	*	*tremolo	*	*tremolo	*	*	*	*	*	*	*	*
8F\	.	.	8f\	.	16A/LL	.	16f/LL	.	4r	4r	.	[<2.cc\	.	.	.
.	.	.	.	.	16A/	.	16f/	.	.	.	.	.	.	.	.
8F\J	.	.	8f\J	.	16A/	.	16f/	.	.	.	.	.	.	.	.
.	.	.	.	.	16A/JJ	.	16f/JJ	.	.	.	.	.	.	.	.
*	*	*	*	*	*Xtremolo	*	*	*	*	*	*	*	*	*	*
8F\L	.	.	8f\L	.	16A/LL	.	16a/LL	.	2r	2r	.	.	.	.	.
.	.	.	.	.	16A/	.	16a/	.	.	.	.	.	.	.	.
8F\	.	.	8f\	.	16c/	.	16a/	.	.	.	.	.	.	.	.
.	.	.	.	.	16c/JJ	.	16a/JJ	.	.	.	.	.	.	.	.
8F\	.	.	8f\	.	16f/LL	.	16cc\LL	.	.	.	.	.	.	.	.
.	.	.	.	.	16f/	.	16cc\	.	.	.	.	.	.	.	.
8F\J	.	.	8f\J	.	16a/	.	16cc\	.	.	.	.	.	.	.	.
.	.	.	.	.	16a/JJ	.	16cc\JJ	.	.	.	.	.	.	.	.
=46	=46	=46	=46	=46	=46	=46	=46	=46	=46	=46	=46	=46	=46	=46	=46
8F\L	.	.	8a\L	.	16cc\LL	.	16ff\LL	.	4r	4r	.	1cc\]	.	1ff\]	.
.	.	.	.	.	16cc\	.	16ff\	.	.	.	.	.	.	.	.
8F\	.	.	8a\	.	16cc\	.	16ff\	.	.	.	.	.	.	.	.
.	.	.	.	.	16cc\JJ	.	16ff\JJ	.	.	.	.	.	.	.	.
*	*	*	*	*	*tremolo	*	*	*	*	*	*	*	*	*	*
8F\	.	.	8a\	.	16a/LL	.	16cc\LL	.	8f/L	8cc\L	.	.	.	.	.
.	.	.	.	.	16a/	.	16cc\	.	.	.	.	.	.	.	.
8F\J	.	.	8a\J	.	16a/	.	16cc\	.	8f/J	8cc\J	.	.	.	.	.
.	.	.	.	.	16a/JJ	.	16cc\JJ	.	.	.	.	.	.	.	.
8F\L	.	.	8cc\L	.	16f/LL	.	16a/LL	.	4f/	4cc\	.	.	.	.	.
.	.	.	.	.	16f/	.	16a/	.	.	.	.	.	.	.	.
8F\	.	.	8cc\	.	16f/	.	16a/	.	.	.	.	.	.	.	.
.	.	.	.	.	16f/JJ	.	16a/JJ	.	.	.	.	.	.	.	.
8F\	.	.	8cc\	.	16e-X/LL	.	16f/LL	.	4f/	4cc\	.	.	.	.	.
.	.	.	.	.	16e-/	.	16f/	.	.	.	.	.	.	.	.
8F\J	.	.	8cc\J	.	16e-/	.	16f/	.	.	.	.	.	.	.	.
.	.	.	.	.	16e-/JJ	.	16f/JJ	.	.	.	.	.	.	.	.
!!pagebreak:original
=47	=47	=47	=47	=47	=47	=47	=47	=47	=47	=47	=47	=47	=47	=47	=47
8F\L	6 4	.	8b-\L	.	16d/LL	.	16f/LL	.	4b-\	4dd\	.	[<1dd\	.	[<1ff\	.
.	.	.	.	.	16d/	.	16f/	.	.	.	.	.	.	.	.
8F\	.	.	8b-\	.	16d/	.	16f/	.	.	.	.	.	.	.	.
.	.	.	.	.	16d/	.	16f/	.	.	.	.	.	.	.	.
8F\	.	.	8b-\	.	16d/	.	16f/	.	4r	4r	.	.	.	.	.
.	.	.	.	.	16d/	.	16f/	.	.	.	.	.	.	.	.
8F\J	.	.	8b-\J	.	16d/	.	16f/	.	.	.	.	.	.	.	.
.	.	.	.	.	16d/JJ	.	16f/JJ	.	.	.	.	.	.	.	.
8F\L	_ _	.	8b-\L	.	16d/LL	.	16b-\LL	.	2r	2r	.	.	.	.	.
.	x	.	.	.	16d/	.	16b-\	.	.	.	.	.	.	.	.
8F\	.	.	8b-\	.	16d/	.	16b-\	.	.	.	.	.	.	.	.
.	.	.	.	.	16d/	.	16b-\JJ	.	.	.	.	.	.	.	.
8F\	.	.	8b-\	.	16d/	.	16dd\LL	.	.	.	.	.	.	.	.
.	.	.	.	.	16d/	.	16dd\	.	.	.	.	.	.	.	.
8F\J	.	.	8b-\J	.	16d/	.	16dd\	.	.	.	.	.	.	.	.
.	.	.	.	.	16d/JJ	.	16dd\JJ	.	.	.	.	.	.	.	.
=48	=48	=48	=48	=48	=48	=48	=48	=48	=48	=48	=48	=48	=48	=48	=48
8F\L	_ _	.	8b-\L	.	16d/LL	.	16ff\LL	.	4r	4r	.	1dd\]	.	1ff\]	.
.	x	.	.	.	16d/	.	16ff\	.	.	.	.	.	.	.	.
8F\	.	.	8b-\	.	16d/	.	16ff\	.	.	.	.	.	.	.	.
.	.	.	.	.	16d/	.	16ff\JJ	.	.	.	.	.	.	.	.
8F\	.	.	8b-\	.	16d/	.	16dd\LL	.	8b-\L	8dd\L	.	.	.	.	.
.	.	.	.	.	16d/	.	16dd\	.	.	.	.	.	.	.	.
8F\J	.	.	8b-\J	.	16d/	.	16dd\	.	8b-\J	8dd\J	.	.	.	.	.
.	.	.	.	.	16d/JJ	.	16dd\JJ	.	.	.	.	.	.	.	.
8F\L	.	.	8b-\L	.	16d/LL	.	16b-\LL	.	4b-\	4dd\	.	.	.	.	.
.	.	.	.	.	16d/	.	16b-\	.	.	.	.	.	.	.	.
8F\	.	.	8b-\	.	16d/	.	16b-\	.	.	.	.	.	.	.	.
.	.	.	.	.	16d/	.	16b-\JJ	.	.	.	.	.	.	.	.
8F\	.	.	8b-\	.	16d/	.	16f/LL	.	4b-\	4dd\	.	.	.	.	.
.	.	.	.	.	16d/	.	16f/	.	.	.	.	.	.	.	.
8F\J	.	.	8b-\J	.	16d/	.	16f/	.	.	.	.	.	.	.	.
.	.	.	.	.	16d/JJ	.	16f/JJ	.	.	.	.	.	.	.	.
=49	=49	=49	=49	=49	=49	=49	=49	=49	=49	=49	=49	=49	=49	=49	=49
8G\L	5 n3	.	8bn\L	.	16d/LL	.	16f/LL	.	4bX\	4dd\	.	[<1dd\	.	[<1ff\	.
.	.	.	.	.	16d/	.	16f/	.	.	.	.	.	.	.	.
8G\	.	.	8b\	.	16d/	.	16f/	.	.	.	.	.	.	.	.
.	.	.	.	.	16d/	.	16f/	.	.	.	.	.	.	.	.
8G\	.	.	8b\	.	16d/	.	16f/	.	4r	4r	.	.	.	.	.
.	.	.	.	.	16d/	.	16f/	.	.	.	.	.	.	.	.
8G\J	.	.	8b\J	.	16d/	.	16f/	.	.	.	.	.	.	.	.
.	.	.	.	.	16d/JJ	.	16f/JJ	.	.	.	.	.	.	.	.
8G\L	_ _	.	8b\L	.	16d/LL	.	16bn\LL	.	2r	2r	.	.	.	.	.
.	x	.	.	.	16d/	.	16b\	.	.	.	.	.	.	.	.
8G\	.	.	8b\	.	16d/	.	16b\	.	.	.	.	.	.	.	.
.	.	.	.	.	16d/	.	16b\JJ	.	.	.	.	.	.	.	.
8G\	.	.	8b\	.	16d/	.	16dd\LL	.	.	.	.	.	.	.	.
.	.	.	.	.	16d/	.	16dd\	.	.	.	.	.	.	.	.
8G\J	.	.	8b\J	.	16d/	.	16dd\	.	.	.	.	.	.	.	.
.	.	.	.	.	16d/JJ	.	16dd\JJ	.	.	.	.	.	.	.	.
*	*	*	*Xtremolo	*	*	*	*	*	*	*	*	*	*	*	*
!	!	!	!	!	!	!	!LO:LB:g=original	!	!	!	!	!	!	!	!
=50	=50	=50	=50	=50	=50	=50	=50	=50	=50	=50	=50	=50	=50	=50	=50
8Bn\L	.	.	2.g\	.	16d/LL	.	16ff\LL	.	4r	4r	.	1dd\]	.	1ff\]	.
.	.	.	.	.	16d/	.	16ff\	.	.	.	.	.	.	.	.
8B\	.	.	.	.	16d/	.	16ff\	.	.	.	.	.	.	.	.
.	.	.	.	.	16d/	.	16ff\JJ	.	.	.	.	.	.	.	.
8B\	.	.	.	.	16d/	.	16dd\LL	.	8dd\L	8ff\L	.	.	.	.	.
.	.	.	.	.	16d/	.	16dd\	.	.	.	.	.	.	.	.
8B\J	.	.	.	.	16d/	.	16dd\	.	8dd\J	8ff\J	.	.	.	.	.
.	.	.	.	.	16d/JJ	.	16dd\JJ	.	.	.	.	.	.	.	.
8B\L	.	.	.	.	16d/LL	.	16bn\LL	.	4dd\	4ff\	.	.	.	.	.
.	.	.	.	.	16d/	.	16b\	.	.	.	.	.	.	.	.
8B\	.	.	.	.	16d/	.	16b\	.	.	.	.	.	.	.	.
.	.	.	.	.	16d/	.	16b\JJ	.	.	.	.	.	.	.	.
8B\	.	.	4f\	.	16d/	.	16f/LL	.	4dd\	4ff\	.	.	.	.	.
.	.	.	.	.	16d/	.	16f/	.	.	.	.	.	.	.	.
8B\J	.	.	.	.	16d/	.	16f/	.	.	.	.	.	.	.	.
.	.	.	.	.	16d/JJ	.	16f/JJ	.	.	.	.	.	.	.	.
=51	=51	=51	=51	=51	=51	=51	=51	=51	=51	=51	=51	=51	=51	=51	=51
8c\L	.	.	8e-\L	.	16c/LL	.	16e-/LL	.	1cc\	1ee-\	.	[<1cc\	.	[<1ee-\	.
.	.	.	.	.	16c/	.	16e-/	.	.	.	.	.	.	.	.
8c\	.	.	8c\	.	16c/	.	16e-/	.	.	.	.	.	.	.	.
.	.	.	.	.	16c/	.	16e-/	.	.	.	.	.	.	.	.
8c\	.	.	8c\	.	16c/	.	16e-/	.	.	.	.	.	.	.	.
.	.	.	.	.	16c/	.	16e-/	.	.	.	.	.	.	.	.
8c\J	.	.	8c\J	.	16c/	.	16e-/	.	.	.	.	.	.	.	.
.	.	.	.	.	16c/JJ	.	16e-/JJ	.	.	.	.	.	.	.	.
*	*	*	*tremolo	*	*	*	*	*	*	*	*	*	*	*	*
8c\L	.	.	8c\L	.	16c/LL	.	16g/LL	.	.	.	.	.	.	.	.
.	.	.	.	.	16c/	.	16g/	.	.	.	.	.	.	.	.
8c\	.	.	8c\	.	16c/	.	16g/	.	.	.	.	.	.	.	.
.	.	.	.	.	16c/	.	16g/JJ	.	.	.	.	.	.	.	.
8c\	.	.	8c\	.	16c/	.	16cc\LL	.	.	.	.	.	.	.	.
.	.	.	.	.	16c/	.	16cc\	.	.	.	.	.	.	.	.
8c\J	.	.	8c\J	.	16c/	.	16cc\	.	.	.	.	.	.	.	.
.	.	.	.	.	16c/JJ	.	16cc\JJ	.	.	.	.	.	.	.	.
!!pagebreak:original
=52	=52	=52	=52	=52	=52	=52	=52	=52	=52	=52	=52	=52	=52	=52	=52
8c\L	.	.	8c\L	.	16c/LL	.	16ee-\LL	.	1f/	1cc\	.	1cc\]	.	1ee-\]	.
.	.	.	.	.	16c/	.	16ee-\	.	.	.	.	.	.	.	.
8c\	.	.	8c\	.	16c/	.	16ee-\	.	.	.	.	.	.	.	.
.	.	.	.	.	16c/	.	16ee-\JJ	.	.	.	.	.	.	.	.
8c\	.	.	8c\	.	16c/	.	16cc\LL	.	.	.	.	.	.	.	.
.	.	.	.	.	16c/	.	16cc\	.	.	.	.	.	.	.	.
8c\J	.	.	8c\J	.	16c/	.	16cc\	.	.	.	.	.	.	.	.
.	.	.	.	.	16c/JJ	.	16cc\JJ	.	.	.	.	.	.	.	.
8c\L	.	.	8c\L	.	16c/LL	.	16g/LL	.	.	.	.	.	.	.	.
.	.	.	.	.	16c/	.	16g/	.	.	.	.	.	.	.	.
8c\	.	.	8c\	.	16c/	.	16g/	.	.	.	.	.	.	.	.
.	.	.	.	.	16c/	.	16g/JJ	.	.	.	.	.	.	.	.
8c\	.	.	8c\	.	16c/	.	16e-/LL	.	.	.	.	.	.	.	.
.	.	.	.	.	16c/	.	16e-/	.	.	.	.	.	.	.	.
8c\J	.	.	8c\J	.	16c/	.	16e-/	.	.	.	.	.	.	.	.
.	.	.	.	.	16c/JJ	.	16e-/JJ	.	.	.	.	.	.	.	.
*	*	*	*Xtremolo	*	*	*	*	*	*	*	*	*	*	*	*
!	!	!	!	!	!LO:LB:g=original	!	!	!	!	!LO:LB:g=original	!	!	!	!	!
=53	=53	=53	=53	=53	=53	=53	=53	=53	=53	=53	=53	=53	=53	=53	=53
!	!	!	!	!	!	!	!	!	!LO:TX:t=P:problem:brakuje dwóch taktów w corni secondo	!LO:TX:t=P:problem:brakuje dwóch taktów w corni primo	!	!	!	!	!
8A\L	5	.	8e-\L	.	16c/LL	.	16e-/LL	.	1ryy	1ryy	.	[<1cc\	.	[<1ee-\	.
.	.	.	.	.	16c/	.	16e-/	.	.	.	.	.	.	.	.
8A\	.	.	8A\	.	16c/	.	16e-/	.	.	.	.	.	.	.	.
.	.	.	.	.	16c/	.	16e-/	.	.	.	.	.	.	.	.
8A\	.	.	8A\	.	16c/	.	16e-/	.	.	.	.	.	.	.	.
.	.	.	.	.	16c/	.	16e-/	.	.	.	.	.	.	.	.
8A\J	.	.	8A\J	.	16c/	.	16e-/	.	.	.	.	.	.	.	.
.	.	.	.	.	16c/JJ	.	16e-/JJ	.	.	.	.	.	.	.	.
*	*	*	*tremolo	*	*	*	*	*	*	*	*	*	*	*	*
8A\L	_	.	8A/L	.	16c/LL	.	16g/LL	.	.	.	.	.	.	.	.
.	.	.	.	.	16c/	.	16g/	.	.	.	.	.	.	.	.
8A\	.	.	8A/	.	16c/	.	16g/	.	.	.	.	.	.	.	.
.	.	.	.	.	16c/	.	16g/JJ	.	.	.	.	.	.	.	.
8A\	.	.	8A/	.	16c/	.	16cc\LL	.	.	.	.	.	.	.	.
.	.	.	.	.	16c/	.	16cc\	.	.	.	.	.	.	.	.
8A\J	.	.	8A/J	.	16c/	.	16cc\	.	.	.	.	.	.	.	.
.	.	.	.	.	16c/JJ	.	16cc\JJ	.	.	.	.	.	.	.	.
*Xtremolo	*	*	*	*	*	*	*	*	*	*	*	*	*	*	*
!	!	!	!LO:LB:g=original	!	!	!	!	!	!	!	!	!	!	!LO:LB:g=original	!
=54	=54	=54	=54	=54	=54	=54	=54	=54	=54	=54	=54	=54	=54	=54	=54
8A\L	.	.	8B-/L	.	16c/LL	.	16ee-\LL	.	1ryy	1ryy	.	1cc\]	.	1ee-\]	.
.	.	.	.	.	16c/	.	16ee-\	.	.	.	.	.	.	.	.
8G\	.	.	8B-/	.	16c/	.	16ee-\	.	.	.	.	.	.	.	.
.	.	.	.	.	16c/	.	16ee-\JJ	.	.	.	.	.	.	.	.
8F\	.	.	8B-/	.	16c/	.	16cc\LL	.	.	.	.	.	.	.	.
.	.	.	.	.	16c/	.	16cc\	.	.	.	.	.	.	.	.
8G\J	.	.	8B-/J	.	16c/	.	16cc\	.	.	.	.	.	.	.	.
.	.	.	.	.	16c/JJ	.	16cc\JJ	.	.	.	.	.	.	.	.
8A\L	.	.	8B-/L	.	16c/LL	.	16a/LL	.	.	.	.	.	.	.	.
.	.	.	.	.	16c/	.	16a/	.	.	.	.	.	.	.	.
8G\	.	.	8B-/	.	16c/	.	16a/	.	.	.	.	.	.	.	.
.	.	.	.	.	16c/	.	16a/JJ	.	.	.	.	.	.	.	.
8F\	.	.	8B-/	.	16c/	.	16e-/LL	.	.	.	.	.	.	.	.
.	.	.	.	.	16c/	.	16e-/	.	.	.	.	.	.	.	.
8A\J	.	.	8B-/J	.	16c/	.	16e-/	.	.	.	.	.	.	.	.
.	x	.	.	.	16c/JJ	.	16e-/JJ	.	.	.	.	.	.	.	.
*	*	*	*	*	*Xtremolo	*	*Xtremolo	*	*	*	*	*	*	*	*
!LO:LB:g=original	!	!	!	!	!	!	!	!	!	!	!	!	!	!	!
=55	=55	=55	=55	=55	=55	=55	=55	=55	=55	=55	=55	=55	=55	=55	=55
*tremolo	*	*	*	*	*	*	*	*	*	*	*	*	*	*	*
8B-\L	.	.	8B-/L	.	8B-/L	.	8d/L	.	[1B-/	[<1b-\	.	2b-\	.	2dd\	.
8B-\	.	.	8B-/	.	8d/	.	8f/	.	.	.	.	.	.	.	.
8B-\	.	.	8B-/	.	8f/	.	8b-/	.	.	.	.	.	.	.	.
8B-\J	.	.	8B-/J	.	8b-/J	.	8dd/J	.	.	.	.	.	.	.	.
8B-\L	.	.	8B-/L	.	4b-\	.	2ff\	.	.	.	.	4dd\	.	4ff\	.
8B-\	.	.	8B-/	.	.	.	.	.	.	.	.	.	.	.	.
8B-\	.	.	8B-/	.	16b-/LL 16d/	.	.	.	.	.	.	4dd\	.	4ff\	.
.	.	.	.	.	16b-/ 16d/	.	.	.	.	.	.	.	.	.	.
8B-\J	.	.	8B-/J	.	16b-/ 16d/	.	.	.	.	.	.	.	.	.	.
.	.	.	.	.	16b-/JJ 16d/	.	.	.	.	.	.	.	.	.	.
!	!	!	!	!	!	!	!	!	!LO:LB:g=original	!	!	!	!	!	!
=56	=56	=56	=56	=56	=56	=56	=56	=56	=56	=56	=56	=56	=56	=56	=56
*	*	*	*	*	*tremolo	*	*	*	*	*	*	*	*	*	*
8B-\L	.	.	8B-/L	.	16b-/LL 16d/	.	4.bb-\	.	1B-/_	1b-\_<	.	1dd\	.	1ff\	.
.	.	.	.	.	16b-/ 16d/	.	.	.	.	.	.	.	.	.	.
8B-\	.	.	8B-/	.	16b-/ 16d/	.	.	.	.	.	.	.	.	.	.
.	.	.	.	.	16b-/ 16d/	.	.	.	.	.	.	.	.	.	.
8B-\	.	.	8B-/	.	16b-/ 16d/	.	.	.	.	.	.	.	.	.	.
.	.	.	.	.	16b-/ 16d/	.	.	.	.	.	.	.	.	.	.
8B-\J	.	.	8B-/J	.	16b-/ 16d/	.	8gg\	.	.	.	.	.	.	.	.
.	.	.	.	.	16b-/JJ 16d/	.	.	.	.	.	.	.	.	.	.
8B-\L	.	.	8B-/L	.	16b-/LL 16d/	.	8dd\L	.	.	.	.	.	.	.	.
.	.	.	.	.	16b-/ 16d/	.	.	.	.	.	.	.	.	.	.
8B-\	.	.	8B-/	.	16b-/ 16d/	.	8b-\	.	.	.	.	.	.	.	.
.	.	.	.	.	16b-/ 16d/	.	.	.	.	.	.	.	.	.	.
8B-\	.	.	8B-/	.	16b-/ 16d/	.	8f\	.	.	.	.	.	.	.	.
.	.	.	.	.	16b-/ 16d/	.	.	.	.	.	.	.	.	.	.
8B-\J	.	.	8B-/J	.	16b-/ 16d/	.	8d\J	.	.	.	.	.	.	.	.
.	.	.	.	.	16b-/JJ 16d/	.	.	.	.	.	.	.	.	.	.
!!pagebreak:original
*	*	*	*	*	*Xtremolo	*	*	*	*	*	*	*	*	*	*
!	!	!	!	!	!	!	!LO:LB:g=original	!	!	!	!	!	!	!	!
=57	=57	=57	=57	=57	=57	=57	=57	=57	=57	=57	=57	=57	=57	=57	=57
*	*	*	*	*	*^	*	*	*	*	*	*	*	*	*	*
8B-\L	6 4	.	8B-/L	.	8B-/L	2.ryy	.	8e-/L	.	1B-/_	1b-\_<	.	2ee-\	.	2gg\	.
8B-\	.	.	8B-/	.	8e-/	.	.	8g/	.	.	.	.	.	.	.	.
8B-\	.	.	8B-/	.	8g/	.	.	8b-/	.	.	.	.	.	.	.	.
8B-\J	.	.	8B-/J	.	8b-/J	.	.	8ee-/J	.	.	.	.	.	.	.	.
8B-\L	_ _	.	8B-/L	.	4b-/	.	.	2gg\	.	.	.	.	4gg\	.	4bb-\	.
8B-\	x	.	8B-/	.	.	.	.	.	.	.	.	.	.	.	.	.
*	*	*	*	*	*tremolo	*tremolo	*	*	*	*	*	*	*	*	*	*
8B-\	.	.	8B-/	.	16b-/LL	16g\LL	.	.	.	.	.	.	4gg\	.	4bb-\	.
.	.	.	.	.	16b-/	16g\	.	.	.	.	.	.	.	.	.	.
8B-\J	.	.	8B-/J	.	16b-/	16g\	.	.	.	.	.	.	.	.	.	.
.	.	.	.	.	16b-/JJ	16g\JJ	.	.	.	.	.	.	.	.	.	.
=58	=58	=58	=58	=58	=58	=58	=58	=58	=58	=58	=58	=58	=58	=58	=58	=58
8B-\L	_ _	.	8B-/L	.	16b-/LL	16g\LL	.	4.bb-\	.	1B-/_	1b-\_<	.	2.gg\	.	2.bb-\	.
.	x	.	.	.	16b-/	16g\	.	.	.	.	.	.	.	.	.	.
8B-\	.	.	8B-/	.	16b-/	16g\	.	.	.	.	.	.	.	.	.	.
.	.	.	.	.	16b-/	16g\	.	.	.	.	.	.	.	.	.	.
8B-\	.	.	8B-/	.	16b-/	16g\	.	.	.	.	.	.	.	.	.	.
.	.	.	.	.	16b-/	16g\	.	.	.	.	.	.	.	.	.	.
8B-\J	.	.	8B-/J	.	16b-/	16g\	.	8gg\	.	.	.	.	.	.	.	.
.	.	.	.	.	16b-/JJ	16g\JJ	.	.	.	.	.	.	.	.	.	.
8B-\L	.	.	8B-/L	.	16b-/LL	16g\LL	.	8ee-/L	.	.	.	.	.	.	.	.
.	.	.	.	.	16b-/	16g\	.	.	.	.	.	.	.	.	.	.
8B-\	.	.	8B-/	.	16b-/	16g\	.	8b-/	.	.	.	.	.	.	.	.
.	.	.	.	.	16b-/	16g\	.	.	.	.	.	.	.	.	.	.
8B-\	.	.	8B-/	.	16b-/	16g\	.	8g/	.	.	.	.	4ee-\	.	4gg\	.
.	.	.	.	.	16b-/	16g\	.	.	.	.	.	.	.	.	.	.
8B-\J	.	.	8B-/J	.	16b-/	16g\	.	8e-/J	.	.	.	.	.	.	.	.
.	.	.	.	.	16b-/JJ	16g\JJ	.	.	.	.	.	.	.	.	.	.
*	*	*	*	*	*v	*v	*	*	*	*	*	*	*	*	*	*
!	!	!	!	!	!	!	!	!	!	!	!	!LO:LB:g=original	!	!	!
=59	=59	=59	=59	=59	=59	=59	=59	=59	=59	=59	=59	=59	=59	=59	=59
8B-\L	5 3	.	8B-/L	.	8B-/L	.	8d/L	.	1B-/_	1b-\_<	.	2dd\	.	2ff\	.
8B-\	.	.	8B-/	.	8d/	.	8f/	.	.	.	.	.	.	.	.
8B-\	.	.	8B-/	.	8f/	.	8b-/	.	.	.	.	.	.	.	.
8B-\J	.	.	8B-/J	.	8b-/J	.	8dd/J	.	.	.	.	.	.	.	.
8B-\L	.	.	8B-/L	.	4b-\	.	2ff\	.	.	.	.	4ff\	.	4bb-\	.
8B-\	.	.	8B-/	.	.	.	.	.	.	.	.	.	.	.	.
8B-\	.	.	8B-/	.	16b-/LL 16d/	.	.	.	.	.	.	4ff\	.	4bb-\	.
.	.	.	.	.	16b-/ 16d/	.	.	.	.	.	.	.	.	.	.
8B-\J	.	.	8B-/J	.	16b-/ 16d/	.	.	.	.	.	.	.	.	.	.
.	.	.	.	.	16b-/JJ 16d/	.	.	.	.	.	.	.	.	.	.
=60	=60	=60	=60	=60	=60	=60	=60	=60	=60	=60	=60	=60	=60	=60	=60
!	!	!	!LO:TX:a:t=f	!	!	!	!	!	!	!	!	!	!	!	!
8B-\L	.	.	8e-\L	.	16b-/LL 16d/	.	4.bb-\	.	1B-/]	1b-\]	.	2.ff\	.	2.bb-\	.
.	.	.	.	.	16b-/ 16d/	.	.	.	.	.	.	.	.	.	.
8B-\	.	.	8e-\	.	16b-/ 16d/	.	.	.	.	.	.	.	.	.	.
.	.	.	.	.	16b-/ 16d/	.	.	.	.	.	.	.	.	.	.
8B-\	.	.	8e-\	.	16b-/ 16d/	.	.	.	.	.	.	.	.	.	.
.	.	.	.	.	16b-/ 16d/	.	.	.	.	.	.	.	.	.	.
8B-\J	.	.	8e-\J	.	16b-/ 16d/	.	8ff\	.	.	.	.	.	.	.	.
.	.	.	.	.	16b-/JJ 16d/	.	.	.	.	.	.	.	.	.	.
!	!	!	!LO:TX:a:t=f	!	!	!	!	!	!	!	!	!	!	!	!
8B-\L	.	.	8e-\L	.	16b-/LL 16d/	.	8dd\L	.	.	.	.	.	.	.	.
.	.	.	.	.	16b-/ 16d/	.	.	.	.	.	.	.	.	.	.
8B-\	.	.	8e-\	.	16b-/ 16d/	.	8b-\	.	.	.	.	.	.	.	.
.	.	.	.	.	16b-/ 16d/	.	.	.	.	.	.	.	.	.	.
8B-\	.	.	8e-\	.	16b-/ 16d/	.	8f\	.	.	.	.	4dd\	.	4ff\	.
.	.	.	.	.	16b-/ 16d/	.	.	.	.	.	.	.	.	.	.
8B-\J	.	.	8e-\J	.	16b-/ 16d/	.	8d\J	.	.	.	.	.	.	.	.
.	.	.	.	.	16b-/JJ 16d/	.	.	.	.	.	.	.	.	.	.
*Xtremolo	*	*	*	*	*Xtremolo	*	*	*	*	*	*	*	*	*	*
!	!	!	!	!	!LO:LB:g=original	!	!	!	!	!	!	!	!	!	!
=61!|:	=61	=61	=61	=61	=61	=61	=61	=61	=61	=61	=61!|:	=61	=61	=61	=61
*	*	*	*	*	*^	*	*	*	*	*	*	*	*	*	*
!	!	!	!LO:TX:a:t=f	!	!	!	!	!	!	!	!	!	!	!	!	!
8F\L	5 3	.	8e-\L	.	4a/	4f\	.	4c/	.	4f/	4cc\	.	4cc\	.	4ee-\	.
8F\	.	.	8e-\	.	.	.	.	.	.	.	.	.	.	.	.	.
8F\	6 4	.	8e-\	.	16b-/LL	4ryy	.	16dd\LL	.	8b-\L	8dd\L	.	4b-\	.	4dd\	.
.	.	.	.	.	16b-/	.	.	16dd\	.	.	.	.	.	.	.	.
8F\J	.	.	8e-\J	.	16b-/	.	.	16dd\	.	8b-\J	8dd\J	.	.	.	.	.
.	.	.	.	.	16b-/JJ	.	.	16dd\JJ	.	.	.	.	.	.	.	.
*	*	*	*	*	*tremolo	*	*	*tremolo	*	*	*	*	*	*	*	*
!	!	!	!LO:TX:a:t=f	!	!	!	!	!	!	!	!	!	!	!	!	!
8F\L	5 3	.	8e-\L	.	16a\LL	2ryy	.	16cc\LL	.	4f/	4cc\	.	4a\	.	4cc\	.
.	.	.	.	.	16a\	.	.	16cc\	.	.	.	.	.	.	.	.
8F\	.	.	8e-\	.	16a\	.	.	16cc\	.	.	.	.	.	.	.	.
.	.	.	.	.	16a\JJ	.	.	16cc\JJ	.	.	.	.	.	.	.	.
8F\	6 4	.	8e-\	.	16b-\LL	.	.	16dd\LL	.	8b-\L	8dd\L	.	4b-\	.	4dd\	.
.	.	.	.	.	16b-\	.	.	16dd\	.	.	.	.	.	.	.	.
8F\J	.	.	8e-\J	.	16b-\	.	.	16dd\	.	8b-\J	8dd\J	.	.	.	.	.
.	.	.	.	.	16b-\JJ	.	.	16dd\JJ	.	.	.	.	.	.	.	.
*	*	*	*	*	*Xtremolo	*	*	*Xtremolo	*	*	*	*	*	*	*	*
*	*	*	*	*	*v	*v	*	*	*	*	*	*	*	*	*	*
=62	=62	=62	=62	=62	=62	=62	=62	=62	=62	=62	=62	=62	=62	=62	=62
*tremolo	*	*	*	*	*	*	*	*	*	*	*	*	*	*	*
!	!	!	!LO:TX:a:t=f	!	!	!	!	!	!	!	!	!	!	!	!
8F\L	.	.	8e-\L	.	4a/ 4f/	.	4cc/ 4f/	.	4f/	4cc\	.	4a\	.	4cc\	.
8F\	.	.	8e-\	.	.	.	.	.	.	.	.	.	.	.	.
8F\	.	.	8e-\	.	4a/ 4f/	.	4cc/ 4f/	.	4f/	4cc\	.	2dd\	.	2ff\	.
8F\J	.	.	8e-\J	.	.	.	.	.	.	.	.	.	.	.	.
*Xtremolo	*	*	*	*	*	*	*	*	*	*	*	*	*	*	*
8F\L	_ _	.	8f\L	.	2r	.	2r	.	2r	2r	.	.	.	.	.
8F\	x	.	8f\	.	.	.	.	.	.	.	.	.	.	.	.
8F\	6 4	.	8f\	.	.	.	.	.	.	.	.	8cc\L	.	8ee-\L	.
8F\J	.	.	8f\J	.	.	.	.	.	.	.	.	8b-\J	.	8dd\J	.
=63:|!	=63	=63	=63	=63	=63	=63	=63	=63	=63	=63	=63:|!	=63	=63	=63	=63
!LO:TX:t=P:problem:takty 63-64 zapisane jako repetycja taktów 61-62	!	!	!	!	!	!	!	!	!	!	!	!	!	!	!
8F\Lyy	5 3	.	8f\L	.	4A/	.	4c/	.	4f/	4cc\	.	4a\	.	4cc\	.
8F\yy	.	.	8f\	.	.	.	.	.	.	.	.	.	.	.	.
8F\yy	6 4	.	8f\	.	16b-\LL	.	16dd\LL	.	8f/L	8dd\L	.	8b-\L	.	8dd\L	.
.	.	.	.	.	16b-\	.	16dd\	.	.	.	.	.	.	.	.
8F\Jyy	.	.	8f\J	.	16b-\	.	16dd\	.	8f/J	8dd\J	.	8b-\J	.	8dd\J	.
.	.	.	.	.	16b-\JJ	.	16dd\JJ	.	.	.	.	.	.	.	.
*	*	*	*	*	*tremolo	*	*tremolo	*	*	*	*	*	*	*	*
8F\Lyy	5 3	.	8f\L	.	16a\LL	.	16cc\LL	.	4f/	4cc\	.	4a\	.	4cc\	.
.	.	.	.	.	16a\	.	16cc\	.	.	.	.	.	.	.	.
8F\yy	.	.	8f\	.	16a\	.	16cc\	.	.	.	.	.	.	.	.
.	.	.	.	.	16a\JJ	.	16cc\JJ	.	.	.	.	.	.	.	.
8F\yy	6 4	.	8f\	.	16b-\LL	.	16dd\LL	.	8f/L	8dd\L	.	8b-\L	.	8dd\L	.
.	.	.	.	.	16b-\	.	16dd\	.	.	.	.	.	.	.	.
8F\Jyy	.	.	8f\J	.	16b-\	.	16dd\	.	8f/J	8dd\J	.	8b-\J	.	8dd\J	.
.	.	.	.	.	16b-\JJ	.	16dd\JJ	.	.	.	.	.	.	.	.
*	*	*	*	*	*Xtremolo	*	*Xtremolo	*	*	*	*	*	*	*	*
!	!	!	!	!	!	!	!	!	!	!	!	!	!	!LO:LB:g=original	!
=64	=64	=64	=64	=64	=64	=64	=64	=64	=64	=64	=64	=64	=64	=64	=64
*tremolo	*	*	*	*	*	*	*	*	*	*	*	*	*	*	*
8F\Lyy	5 3	.	8f\L	.	4a/ 4f/	.	4cc/ 4f/	.	4f/	4cc\	.	4a\	.	4cc\	.
8F\yy	.	.	8f\	.	.	.	.	.	.	.	.	.	.	.	.
8F\yy	.	.	8f\	.	4a/ 4f/	.	4cc/ 4f/	.	4f/	4cc\	.	2dd\	.	2ff\	.
8F\Jyy	.	.	8f\J	.	.	.	.	.	.	.	.	.	.	.	.
*Xtremolo	*	*	*	*	*	*	*	*	*	*	*	*	*	*	*
8F\Lyy	_ _	.	8f\L	.	2r	.	2r	.	2r	2r	.	.	.	.	.
8F\yy	x	.	8f\	.	.	.	.	.	.	.	.	.	.	.	.
8F\yy	6 4	.	8f\	.	.	.	.	.	.	.	.	8cc\L	.	8ee-\L	.
8F\Jyy	.	.	8f\J	.	.	.	.	.	.	.	.	8b-\J	.	8dd\J	.
*	*	*	*Xtremolo	*	*	*	*	*	*	*	*	*	*	*	*
!	!	!	!LO:LB:g=original	!	!	!	!LO:LB:g=original	!	!	!	!	!	!	!	!
=65	=65	=65	=65	=65	=65	=65	=65	=65	=65	=65	=65	=65	=65	=65	=65
*	*	*	*	*	*tremolo	*	*tremolo	*	*	*	*	*	*	*	*
!	!	!	!LO:TX:t=P:problem:w altówce za mało taktów-nie zgadza się z resztą głosów	!	!	!	!	!	!	!	!	!	!	!	!
8F\L	5 3	.	1ryy	.	16a\LL	.	16cc/LL 16f/	.	4f/	4cc\	.	4a\	.	4cc\	.
.	.	.	.	.	16a\	.	16cc/ 16f/	.	.	.	.	.	.	.	.
8F\	.	.	.	.	16a\	.	16cc/ 16f/	.	.	.	.	.	.	.	.
.	.	.	.	.	16a\JJ	.	16cc/JJ 16f/	.	.	.	.	.	.	.	.
8F\	6 4	.	.	.	16b-\LL	.	16dd/LL 16f/	.	8b-\L	8dd\L	.	4b-\	.	4dd\	.
.	.	.	.	.	16b-\	.	16dd/ 16f/	.	.	.	.	.	.	.	.
8F\J	.	.	.	.	16b-\	.	16dd/ 16f/	.	8b-\J	8dd\J	.	.	.	.	.
.	.	.	.	.	16b-\JJ	.	16dd/JJ 16f/	.	.	.	.	.	.	.	.
*tremolo	*	*	*	*	*	*	*	*	*	*	*	*	*	*	*
8F\L	5 3	.	.	.	16a\LL	.	16cc/LL 16f/	.	4f/	4cc\	.	4a\	.	4cc\	.
.	.	.	.	.	16a\	.	16cc/ 16f/	.	.	.	.	.	.	.	.
8F\	.	.	.	.	16a\	.	16cc/ 16f/	.	.	.	.	.	.	.	.
.	.	.	.	.	16a\JJ	.	16cc/JJ 16f/	.	.	.	.	.	.	.	.
8F\	6 4	.	.	.	16b-\LL	.	16dd/LL 16f/	.	8b-\L	8dd\L	.	4b-\	.	4dd\	.
.	.	.	.	.	16b-\	.	16dd/ 16f/	.	.	.	.	.	.	.	.
8F\J	.	.	.	.	16b-\	.	16dd/ 16f/	.	8b-\J	8dd\J	.	.	.	.	.
.	.	.	.	.	16b-\JJ	.	16dd/JJ 16f/	.	.	.	.	.	.	.	.
*Xtremolo	*	*	*	*	*Xtremolo	*	*Xtremolo	*	*	*	*	*	*	*	*
!LO:LB:g=original	!	!	!	!	!	!	!	!	!LO:LB:g=original	!	!	!	!	!	!
=66	=66	=66	=66	=66	=66	=66	=66	=66	=66	=66	=66	=66	=66	=66	=66
4F\	5 3	.	4f\	.	4a/ 4f/	.	4cc/ 4f/	.	4f/	4cc\	.	4a/	.	4cc\	.
4r	.	.	4r	.	4r	.	4r	.	8f/L	8ff\L	.	8f/L	.	8ff\L	.
.	.	.	.	.	.	.	.	.	8f/J	8ff\J	.	8f/J	.	8ff\J	.
2r	.	.	2r	.	2r	.	2r	.	4f/	4ff\	.	4f/	.	4ff\	.
.	.	.	.	.	.	.	.	.	4f/	4ff\	.	4f/	.	4ff\	.
!	!	!	!	!	!	!	!	!	!	!LO:LB:g=original	!	!	!	!	!
=67	=67	=67	=67	=67	=67!|:	=67	=67	=67	=67	=67	=67	=67	=67	=67	=67
!	!	!	!	!	!	!LO:DY:rj	!	!LO:DY:rj	!	!	!LO:DY:rj	!	!	!	!
4F\	.	p	4r	p	8.cc\L	p	8.ee-\L	p	[1f/	[<1ff\	p	[1f/	.	[<1ff\	.
.	.	.	.	.	16b-\K	.	16dd\K	.	.	.	.	.	.	.	.
4A\	.	.	8f\L	.	8a\	.	8cc\	.	.	.	.	.	.	.	.
.	.	.	8f\J	.	8a\J	.	8cc\J	.	.	.	.	.	.	.	.
8B-\L	.	.	4f\	.	4b-\	.	4dd\	.	.	.	.	.	.	.	.
8A\	.	.	.	.	.	.	.	.	.	.	.	.	.	.	.
8B-\	.	.	4f\	.	4g/	.	4b-\	.	.	.	.	.	.	.	.
8G\J	.	.	.	.	.	.	.	.	.	.	.	.	.	.	.
=68	=68	=68	=68	=68	=68	=68	=68	=68	=68	=68	=68	=68	=68	=68	=68
4F\	.	.	4f\	.	(8f/L	.	(8a\L	.	1f/_	1ff\_<	.	1f/_	.	1ff\_<	.
.	.	.	.	.	8g/)	.	8b-\)	.	.	.	.	.	.	.	.
!	!	!	!	!	!LO:TX:b:i:t=|	!	!LO:TX:a:t=|	!	!	!	!	!	!	!	!
4r	.	.	4r	.	8a/	.	8cc\	.	.	.	.	.	.	.	.
!	!	!	!	!	!LO:TX:b:i:t=|	!	!LO:TX:a:t=|	!	!	!	!	!	!	!	!
.	.	.	.	.	8a/J	.	8cc\J	.	.	.	.	.	.	.	.
2r	.	.	2r	.	(8b-\L	.	(8dd\L	.	.	.	.	.	.	.	.
.	.	.	.	.	8cc\)	.	8ee-\)	.	.	.	.	.	.	.	.
!	!	!	!	!	!LO:TX:a:t=|	!	!LO:TX:a:t=|	!	!	!	!	!	!	!	!
.	.	.	.	.	8dd\	.	8ff\	.	.	.	.	.	.	.	.
!	!	!	!	!	!LO:TX:a:t=|	!	!LO:TX:a:t=|	!	!	!	!	!	!	!	!
.	.	.	.	.	8dd\J	.	8ff\J	.	.	.	.	.	.	.	.
!	!	!	!	!	!LO:LB:g=original	!	!	!	!	!	!	!	!	!	!
=69	=69	=69	=69	=69	=69:|!	=69	=69	=69	=69	=69	=69	=69	=69	=69	=69
!	!	!	!	!	!LO:TX:t=P:problem:takty 65-66 zapisane jako repetycja taktów 63-64	!	!	!	!	!	!	!	!	!	!
!	!	!	!	!	!	!LO:DY:rj	!	!	!	!	!	!	!	!	!
[<1F\	5 3	.	4r	.	8.cc\Lyy	p	8.ee-\L	.	1f/_	1ff\_<	.	1f/_	.	1ff\_<	.
.	.	.	.	.	16b-\Kyy	.	16dd\K	.	.	.	.	.	.	.	.
.	6 4	.	8f\L	.	8a\yy	.	8cc\	.	.	.	.	.	.	.	.
.	.	.	8f\J	.	8a\Jyy	.	8cc\J	.	.	.	.	.	.	.	.
.	4 2	.	4f\	.	4b-\yy	.	4dd\	.	.	.	.	.	.	.	.
.	.	.	4f\	.	4g/yy	.	4b-\	.	.	.	.	.	.	.	.
!	!	!	!	!	!	!	!	!	!	!	!	!LO:LB:g=original	!	!	!
=70	=70	=70	=70	=70	=70	=70	=70	=70	=70	=70	=70	=70	=70	=70	=70
1F\_<	5 3	.	4f\	.	(yy8f/Lyy	.	(8a\L	.	1f/_	1ff\_<	.	1f/_	.	1ff\_<	.
.	.	.	.	.	8g/)yy	.	8b-\)	.	.	.	.	.	.	.	.
!	!	!	!	!	!LO:TX:b:i:t=|	!	!LO:TX:a:t=|	!	!	!	!	!	!	!	!
.	.	.	4r	.	8a/yy	.	8cc\	.	.	.	.	.	.	.	.
!	!	!	!	!	!LO:TX:b:i:t=|	!	!LO:TX:a:t=|	!	!	!	!	!	!	!	!
.	.	.	.	.	8a/Jyy	.	8cc\J	.	.	.	.	.	.	.	.
.	6 4	.	2r	.	(yy8b-\Lyy	.	(8dd\L	.	.	.	.	.	.	.	.
.	.	.	.	.	8cc\)yy	.	8ee-\)	.	.	.	.	.	.	.	.
!	!	!	!	!	!LO:TX:a:t=|	!	!LO:TX:a:t=|	!	!	!	!	!	!	!	!
.	.	.	.	.	8dd\	.	8ff\	.	.	.	.	.	.	.	.
!	!	!	!	!	!LO:TX:a:t=|	!	!LO:TX:a:t=|	!	!	!	!	!	!	!	!
.	.	.	.	.	8dd\J	.	8ff\J	.	.	.	.	.	.	.	.
=71	=71	=71	=71	=71	=71	=71	=71	=71	=71	=71	=71	=71	=71	=71	=71
1F\_<	5 3	.	4r	.	8.cc\L	.	8.ee-\L	.	1f/_	1ff\_<	.	1f/_	.	1ff\_<	.
.	.	.	.	.	16b-\K	.	16dd\K	.	.	.	.	.	.	.	.
.	6 4	.	8f\L	.	8a\	.	8cc\	.	.	.	.	.	.	.	.
.	.	.	8f\J	.	8a\J	.	8cc\J	.	.	.	.	.	.	.	.
.	4 2	.	4f\	.	4b-\	.	4dd\	.	.	.	.	.	.	.	.
.	.	.	4f\	.	4g\	.	4b-\	.	.	.	.	.	.	.	.
!	!	!	!	!	!	!	!LO:LB:g=original	!	!	!	!	!	!	!	!
=72	=72	=72	=72	=72	=72	=72	=72	=72	=72	=72	=72	=72	=72	=72	=72
4F\]	5 3	.	4f\	.	(8f/L	.	(8a\L	.	1f/;]	1ff\;]	.	1f/;]	.	1ff\;]	.
.	.	.	.	.	8g/)	.	8b-\)	.	.	.	.	.	.	.	.
!	!	!	!	!	!LO:TX:b:i:t=|	!	!	!	!	!	!	!	!	!	!
4F\	.	.	4f\	.	8a/	.	8cc'\	.	.	.	.	.	.	.	.
!	!	!	!	!	!LO:TX:b:i:t=|	!	!	!	!	!	!	!	!	!	!
.	.	.	.	.	8a/J	.	8cc'\J	.	.	.	.	.	.	.	.
2F;\	.	.	2f;\	.	2a;/	.	2cc;\	.	.	.	.	.	.	.	.
=73	=73	=73	=73	=73	=73!|:	=73	=73!|:	=73	=73	=73	=73	=73!|:	=73	=73!|:	=73
!LO:TX:a:t=4	!	!	!LO:TX:a:t=4	!	!	!	!	!LO:DY:rj	!LO:TX:a:t=5	!LO:TX:a:t=5	!	!LO:TX:a:t=Solo	!	!LO:TX:a:t=Solo	!
00r	.	.	00r	.	4b-\	p	4b-/	p	00r	00r	.	(8b-\L	.	(8dd\L	.
.	.	.	.	.	.	.	.	.	.	.	.	8cc\)	.	8ee-\)	.
!	!	!	!	!	!	!	!	!	!	!	!	!LO:TX:a:t=|	!	!LO:TX:a:t=|	!
.	.	.	.	.	4B-/	.	4B-/	.	.	.	.	8dd\	.	8ff\	.
!	!	!	!	!	!	!	!	!	!	!	!	!LO:TX:a:t=|	!	!LO:TX:a:t=|	!
.	.	.	.	.	.	.	.	.	.	.	.	8dd\J	.	8ff\J	.
.	.	.	.	.	4d/	.	4d/	.	.	.	.	4.dd\	.	8ff\L	.
.	.	.	.	.	.	.	.	.	.	.	.	.	.	8bb-\	.
.	.	.	.	.	4f/	.	4f/	.	.	.	.	.	.	8ff\	.
.	.	.	.	.	.	.	.	.	.	.	.	8cc\	.	8cc\J	.
=74	=74	=74	=74	=74	=74	=74	=74	=74	=74	=74	=74	=74	=74	=74	=74
.	.	.	.	.	4b-\	.	4b-/	.	.	.	.	8b-\L	.	8dd\L	.
.	.	.	.	.	.	.	.	.	.	.	.	8dd\	.	8ff\	.
.	.	.	.	.	8f/L	.	4e-/	.	.	.	.	8b-\	.	8dd\	.
.	.	.	.	.	8e-/J	.	.	.	.	.	.	8f\J	.	8cc\J	.
.	.	.	.	.	4d/	.	2f/	.	.	.	.	4f/	.	4b-\	.
!	!	!	!	!	!LO:TX:t=P:problem:mixed beam	!	!	!	!	!	!	!	!	!	!
.	.	.	.	.	8c/L	.	.	.	.	.	.	8a\L	.	8cc\L	.
.	.	.	.	.	8a\J	.	.	.	.	.	.	8a\J	.	8cc\J	.
=75	=75	=75	=75	=75	=75:|!	=75	=75:|!	=75	=75	=75	=75	=75:|!	=75	=75:|!	=75
!	!	!	!	!	!LO:TX:t=P:problem:takty 75-76 zapisane jako repetycja taktów 73-74	!	!LO:TX:t=P:problem:takty 75-76 zapisane jako repetycja taktów 73-74	!	!	!	!	!LO:TX:t=P:problem:takty 75-76 zapisane jako repetycja taktów 73-74	!	!LO:TX:t=P:problem:takty 75-76 zapisane jako repetycja taktów 73-74	!
!	!	!	!	!	!	!	!	!LO:DY:rj	!	!	!	!	!	!	!
.	.	.	.	.	4b-\yy	p	4b-/yy	p	.	.	.	(yy8b-\Lyy	.	(yy8dd\Lyy	.
.	.	.	.	.	.	.	.	.	.	.	.	8cc\)yy	.	8ee-\)yy	.
!	!	!	!	!	!	!	!	!	!	!	!	!LO:TX:a:t=|	!	!LO:TX:a:t=|	!
.	.	.	.	.	4B-/yy	.	4B-/yy	.	.	.	.	8dd\yy	.	8ff\yy	.
!	!	!	!	!	!	!	!	!	!	!	!	!LO:TX:a:t=|	!	!LO:TX:a:t=|	!
.	.	.	.	.	.	.	.	.	.	.	.	8dd\Jyy	.	8ff\Jyy	.
.	.	.	.	.	4d/yy	.	4d/yy	.	.	.	.	4.dd\yy	.	8ff\Lyy	.
.	.	.	.	.	.	.	.	.	.	.	.	.	.	8bb-\yy	.
.	.	.	.	.	4f/yy	.	4f/yy	.	.	.	.	.	.	8ff\yy	.
.	.	.	.	.	.	.	.	.	.	.	.	8cc\yy	.	8cc\Jyy	.
=76	=76	=76	=76	=76	=76	=76	=76	=76	=76	=76	=76	=76	=76	=76	=76
.	.	.	.	.	4b-\yy	.	4b-/yy	.	.	.	.	8b-\Lyy	.	8dd\Lyy	.
.	.	.	.	.	.	.	.	.	.	.	.	8dd\yy	.	8ff\yy	.
.	.	.	.	.	8f/Lyy	.	4e-/yy	.	.	.	.	8b-\yy	.	8dd\yy	.
.	.	.	.	.	8e-/Jyy	.	.	.	.	.	.	8f\Jyy	.	8cc\Jyy	.
.	.	.	.	.	4d/yy	.	2f/yy	.	.	.	.	4f/yy	.	4b-\yy	.
!	!	!	!	!	!LO:TX:t=P:problem:mixed beam	!	!	!	!	!	!	!	!	!	!
.	.	.	.	.	8c/Lyy	.	.	.	.	.	.	8a\Lyy	.	8cc\Lyy	.
.	.	.	.	.	8a\Jyy	.	.	.	.	.	.	8a\Jyy	.	8cc\Jyy	.
!	!	!	!	!	!	!	!	!	!	!	!	!	!	!LO:LB:g=original	!
=77	=77	=77	=77	=77	=77	=77	=77	=77	=77	=77	=77	=77	=77	=77	=77
4BB-/	.	f	4B-/	.	(8b-\L	.	4b-\	f	1r	1r	.	4b-\	.	4b-\	.
.	.	.	.	.	8f\)	.	.	.	.	.	.	.	.	.	.
!	!	!	!	!	!LO:TX:a:t=|	!	!	!	!	!	!	!	!	!	!
4r	.	.	4r	.	8f\	.	2ff\	.	.	.	.	4r	.	4r	.
!	!	!	!	!	!LO:TX:a:t=|	!	!	!	!	!	!	!	!	!	!
.	.	.	.	.	8g\J	.	.	.	.	.	.	.	.	.	.
4r	.	.	4r	.	4a\	.	.	.	.	.	.	2cc\	.	2ee-\	.
4A\	.	.	8a\L	.	4cc\	.	8gg\L	.	.	.	.	.	.	.	.
.	.	.	8a\J	.	.	.	8aa\J	.	.	.	.	.	.	.	.
!!pagebreak:original
=78	=78	=78	=78	=78	=78	=78	=78	=78	=78	=78	=78	=78	=78	=78	=78
4B-\	.	.	8b-\L	.	16b-\LL	.	8bb-\L	.	4r	4r	.	8b-\	.	8dd\	.
.	.	.	.	.	16b-\	.	.	.	.	.	.	.	.	.	.
.	.	.	8b-\	.	16b-\	.	8ff\	.	.	.	.	8r	.	8r	.
.	.	.	.	.	16b-\JJ	.	.	.	.	.	.	.	.	.	.
*	*	*	*	*	*tremolo	*	*	*	*	*	*	*	*	*	*
4E-\	8 6	.	8e-\	.	16cc\LL	.	8gg\	.	2f/	2cc\	.	8e-/	.	8cc\	.
.	.	.	.	.	16cc\	.	.	.	.	.	.	.	.	.	.
.	.	.	8e-\J	.	16cc\	.	8ee-\J	.	.	.	.	8r	.	8r	.
.	.	.	.	.	16cc\JJ	.	.	.	.	.	.	.	.	.	.
!	!	!	!LO:LB:g=original	!	!	!	!	!	!	!	!	!	!	!	!
4F\	6 4	.	8f\L	.	16b-\LL	.	8dd\L	.	.	.	.	8d/	.	8b-\	.
.	.	.	.	.	16b-\	.	.	.	.	.	.	.	.	.	.
.	.	.	8f\	.	16b-\	.	8ff\	.	.	.	.	8r	.	8r	.
.	.	.	.	.	16b-\JJ	.	.	.	.	.	.	.	.	.	.
4F#X\	5 3	.	8f#X\	.	16a\LL	.	8ee-\	.	4f/	4cc\	.	8c/	.	8a\	.
.	.	.	.	.	16a\	.	.	.	.	.	.	.	.	.	.
.	.	.	8f#\J	.	16a\	.	8cc\J	.	.	.	.	8r	.	8r	.
.	.	.	.	.	16a\JJ	.	.	.	.	.	.	.	.	.	.
*	*	*	*	*	*Xtremolo	*	*	*	*	*	*	*	*	*	*
=79	=79	=79	=79	=79	=79	=79	=79	=79	=79	=79	=79	=79	=79	=79	=79
4G\	3	.	4g\	.	4g/	.	4b-\	.	4d/	4b-\	.	4d/	.	4b-\	.
4r	.	.	4r	.	8f/L	.	2ff\	.	4r	4r	.	4r	.	4r	.
.	.	.	.	.	8g/J	.	.	.	.	.	.	.	.	.	.
4r	.	.	4r	.	4a\	.	.	.	2r	2r	.	2cc\	.	2ee-\	.
4A\	.	.	8a\L	.	4cc\	.	8gg\L	.	.	.	.	.	.	.	.
.	.	.	8a\J	.	.	.	8aa\J	.	.	.	.	.	.	.	.
!LO:LB:g=original	!	!	!	!	!LO:LB:g=original	!	!	!	!	!	!	!	!	!	!
=80	=80	=80	=80	=80	=80	=80	=80	=80	=80	=80	=80	=80	=80	=80	=80
4B-\	.	.	4b-\	.	16b-\LL	.	8bb-\L	.	4r	4r	.	8b-\L	.	4dd\	.
.	.	.	.	.	16b-\	.	.	.	.	.	.	.	.	.	.
.	.	.	.	.	16b-\	.	8ff\	.	.	.	.	8f\J	.	.	.
.	.	.	.	.	16b-\JJ	.	.	.	.	.	.	.	.	.	.
*	*	*	*	*	*tremolo	*	*	*	*	*	*	*	*	*	*
4E-\	6	.	8e-\L	.	16cc\LL	.	8gg\	.	2f/	2cc\	.	4e-/	.	4cc\	.
.	.	.	.	.	16cc\	.	.	.	.	.	.	.	.	.	.
.	.	.	8e-\J	.	16cc\	.	8ee-\J	.	.	.	.	.	.	.	.
.	.	.	.	.	16cc\JJ	.	.	.	.	.	.	.	.	.	.
!	!	!	!LO:TX:t=P:problem:mixed beam	!	!	!	!	!	!	!	!	!	!	!	!
4F\	6 4	.	8f\L	.	16b-\LL	.	8dd\L	.	.	.	.	4d/	.	4b-\	.
.	.	.	.	.	16b-\	.	.	.	.	.	.	.	.	.	.
.	.	.	8f\	.	16b-\	.	8ff\	.	.	.	.	.	.	.	.
.	.	.	.	.	16b-\JJ	.	.	.	.	.	.	.	.	.	.
4FF/	5 3	.	8F/	.	16f/LL	.	8ee-\	.	4f/	4cc\	.	4c/	.	4a\	.
.	.	.	.	.	16f/	.	.	.	.	.	.	.	.	.	.
.	.	.	8F/J	.	16f/	.	8cc\J	.	.	.	.	.	.	.	.
.	.	.	.	.	16f/JJ	.	.	.	.	.	.	.	.	.	.
*	*	*	*	*	*Xtremolo	*	*	*	*	*	*	*	*	*	*
=81	=81	=81	=81	=81	=81	=81	=81	=81	=81	=81	=81	=81	=81	=81	=81
4BB-/	.	.	4B-/	.	4d/	.	4b-\	.	4d/	4b-\	.	8d/L	.	4b-\	.
.	.	.	.	.	.	.	.	.	.	.	.	8f/J	.	.	.
4B-\	.	.	4b-\	.	4b-/ 4d/	.	4bb-/ 4b-/ 4d/	.	8d/L	8b-\L	.	8b-\L	.	8dd\L	.
.	.	.	.	.	.	.	.	.	8d/J	8b-\J	.	8b-\J	.	8dd\J	.
4B-\	.	.	4b-\	.	4b-/ 4d/	.	4bb-/ 4b-/ 4d/	.	4d/	4b-\	.	4b-\	.	4dd\	.
4r	.	.	4r	.	4r	.	4r	.	4r	4r	.	4r	.	4r	.
!	!	!	!	!	!	!	!LO:LB:g=original	!	!LO:LB:g=original	!	!	!LO:LB:g=original	!	!	!
=82	=82	=82	=82	=82	=82	=82	=82	=82	=82	=82	=82	=82	=82	=82	=82
*tremolo	*	*	*tremolo	*	*	*	*	*	*	*	*	*	*	*	*
!	!	!	!	!	!LO:TX:a:t=Solo	!	!LO:TX:a:t=Solo	!	!LO:TX:a:t=4	!LO:TX:a:t=4	!	!LO:TX:a:t=3	!	!LO:TX:a:t=3	!
8B-\L	.	p	8b-\L	p	2dd\	.	2ff\	.	00r	00r	.	0r	.	0r	.
8B-\	.	.	8b-\	.	.	.	.	.	.	.	.	.	.	.	.
8B-\	.	.	8b-\	.	.	.	.	.	.	.	.	.	.	.	.
8B-\J	.	.	8b-\J	.	.	.	.	.	.	.	.	.	.	.	.
8B-\L	.	.	8b-\L	.	8dd\L	.	8ff\L	.	.	.	.	.	.	.	.
8B-\	.	.	8b-\	.	8ee-\	.	8gg\	.	.	.	.	.	.	.	.
8B-\	.	.	8b-\	.	8ff\	.	8aa\	.	.	.	.	.	.	.	.
8B-\J	.	.	8b-\J	.	8gg\J	.	8bb-\J	.	.	.	.	.	.	.	.
=83	=83	=83	=83	=83	=83	=83	=83	=83	=83	=83	=83	=83	=83	=83	=83
8B-\L	.	.	8b-\L	.	(8gg\L	.	(8bb-\L	.	.	.	.	.	.	.	.
8B-\	.	.	8b-\	.	8ff\)	.	8aa\)	.	.	.	.	.	.	.	.
!	!	!	!	!	!LO:TX:a:t=|	!	!LO:TX:a:t=|	!	!	!	!	!	!	!	!
8B-\	.	.	8b-\	.	8ee-\	.	8gg\	.	.	.	.	.	.	.	.
!	!	!	!	!	!LO:TX:a:t=|	!	!LO:TX:a:t=|	!	!	!	!	!	!	!	!
8B-\J	.	.	8b-\J	.	8dd\J	.	8ff\J	.	.	.	.	.	.	.	.
8B-\L	.	.	8b-\L	.	8dd\L	.	2ff\	.	.	.	.	.	.	.	.
8B-\	.	.	8b-\	.	8b-\	.	.	.	.	.	.	.	.	.	.
8B-\	.	.	8b-\	.	8dd\	.	.	.	.	.	.	.	.	.	.
8B-\J	.	.	8b-\J	.	8b-\J	.	.	.	.	.	.	.	.	.	.
*	*	*	*Xtremolo	*	*	*	*	*	*	*	*	*	*	*	*
=84	=84	=84	=84	=84	=84	=84	=84	=84	=84	=84	=84	=84	=84	=84	=84
4F\	.	.	4f\	.	2cc\	.	8ee-\L	.	.	.	.	1r	.	1r	.
.	.	.	.	.	.	.	8aa\	.	.	.	.	.	.	.	.
4G\	.	.	4g\	.	.	.	8ccc\	.	.	.	.	.	.	.	.
.	.	.	.	.	.	.	8bb-\J	.	.	.	.	.	.	.	.
4A\	.	.	4a\	.	4ee-\	.	8aa\L	.	.	.	.	.	.	.	.
.	.	.	.	.	.	.	8gg\	.	.	.	.	.	.	.	.
4F\	.	.	4f\	.	4cc\	.	8ff\	.	.	.	.	.	.	.	.
.	.	.	.	.	.	.	8ee-\J	.	.	.	.	.	.	.	.
=85	=85	=85	=85	=85	=85	=85	=85	=85	=85	=85	=85	=85	=85	=85	=85
4B-\	.	.	4b-\	.	(8cc\L	.	(8ee-\L	.	.	.	.	2r	.	2r	.
.	.	.	.	.	8b-\J)	.	8dd\)	.	.	.	.	.	.	.	.
!	!	!	!	!	!LO:TX:a:t=|	!	!LO:TX:a:t=|	!	!	!	!	!	!	!	!
4BB-/	.	.	4B-/	.	8ee-\L	.	8gg\	.	.	.	.	.	.	.	.
!	!	!	!	!	!LO:TX:a:t=|	!	!LO:TX:a:t=|	!	!	!	!	!	!	!	!
.	.	.	.	.	8dd\J	.	8ff\J	.	.	.	.	.	.	.	.
4B-\	.	.	4b-\	.	4dd\	.	4ff\	.	.	.	.	8r	.	8r	.
.	.	.	.	.	.	.	.	.	.	.	.	8d\L	.	8f\L	.
4r	.	.	4r	.	4r	.	4r	.	.	.	.	8f\	.	8b-\	.
.	.	.	.	.	.	.	.	.	.	.	.	8b-\J	.	8dd\J	.
!	!	!	!LO:LB:g=original	!	!	!	!	!	!	!	!	!	!	!	!
=86	=86	=86	=86	=86	=86	=86	=86	=86	=86	=86	=86	=86	=86	=86	=86
*	*	*	*	*	*tremolo	*	*	*	*	*	*	*	*	*	*
!	!	!LO:DY:rj	!	!	!	!LO:DY:rj	!	!LO:DY:rj	!	!	!	!	!	!	!
4F\	7	f	4f\	f	16e-/LL 16c/	f	4e-/	f	1cc\	1ee-\	.	(8dd\L	.	(8ff\L	.
.	.	.	.	.	16e-/ 16c/	.	.	.	.	.	.	.	.	.	.
.	.	.	.	.	16e-/ 16c/	.	.	.	.	.	.	8cc\J)	.	8ee-\J)	.
.	.	.	.	.	16e-/ 16c/	.	.	.	.	.	.	.	.	.	.
8c\L	_	.	8cc\L	.	16e-/ 16c/	.	(16ee-\LL	.	.	.	.	2cc\	.	2ee-\	.
.	.	.	.	.	16e-/ 16c/	.	16dd\	.	.	.	.	.	.	.	.
8B-\J	.	.	8b-\J	.	16e-/ 16c/	.	16cc\	.	.	.	.	.	.	.	.
.	.	.	.	.	16e-/JJ 16c/	.	16b-\JJ)	.	.	.	.	.	.	.	.
4A\	.	.	4a\	.	16e-/LL 16c/	.	8a/L	.	.	.	.	.	.	.	.
.	.	.	.	.	16e-/ 16c/	.	.	.	.	.	.	.	.	.	.
.	.	.	.	.	16e-/ 16c/	.	8f/	.	.	.	.	.	.	.	.
.	.	.	.	.	16e-/ 16c/	.	.	.	.	.	.	.	.	.	.
4F\	.	.	4f\	.	16e-/ 16c/	.	8g/	.	.	.	.	4cc\	.	4ee-\	.
.	.	.	.	.	16e-/ 16c/	.	.	.	.	.	.	.	.	.	.
.	.	.	.	.	16e-/ 16c/	.	8a/J	.	.	.	.	.	.	.	.
.	x	.	.	.	16e-/JJ 16c/	.	.	.	.	.	.	.	.	.	.
!!pagebreak:original
=87	=87	=87	=87	=87	=87	=87	=87	=87	=87	=87	=87	=87	=87	=87	=87
4B-\	.	.	4b-\	.	16d/LL 16B-/	.	4b-\	.	1b-\	1dd\	.	(8cc\L	.	(8ee-\L	.
.	.	.	.	.	16d/ 16B-/	.	.	.	.	.	.	.	.	.	.
.	.	.	.	.	16d/ 16B-/	.	.	.	.	.	.	8b-\J)	.	8dd\J)	.
.	.	.	.	.	16d/ 16B-/	.	.	.	.	.	.	.	.	.	.
4BB-/	.	.	4B-/	.	16d/ 16B-/	.	(16ff\LL	.	.	.	.	2b-\	.	2dd\	.
.	.	.	.	.	16d/ 16B-/	.	16ee-\	.	.	.	.	.	.	.	.
.	.	.	.	.	16d/ 16B-/	.	16dd\	.	.	.	.	.	.	.	.
.	.	.	.	.	16d/JJ 16B-/	.	16ee-\JJ)	.	.	.	.	.	.	.	.
4D/	.	.	4d/	.	16d/LL 16B-/	.	8dd\L	.	.	.	.	.	.	.	.
.	.	.	.	.	16d/ 16B-/	.	.	.	.	.	.	.	.	.	.
.	.	.	.	.	16d/ 16B-/	.	8b-\	.	.	.	.	.	.	.	.
.	.	.	.	.	16d/ 16B-/	.	.	.	.	.	.	.	.	.	.
4BB-/	.	.	4B-/	.	16d/ 16B-/	.	8cc\	.	.	.	.	4b-\	.	4dd\	.
.	.	.	.	.	16d/ 16B-/	.	.	.	.	.	.	.	.	.	.
.	.	.	.	.	16d/ 16B-/	.	8dd\J	.	.	.	.	.	.	.	.
.	.	.	.	.	16d/JJ 16B-/	.	.	.	.	.	.	.	.	.	.
!	!	!	!	!	!LO:LB:g=original	!	!	!	!	!LO:LB:g=original	!	!	!	!	!
=88	=88	=88	=88	=88	=88	=88	=88	=88	=88	=88	=88	=88	=88	=88	=88
4F\	7	.	4f\	.	16e-/LL 16c/	.	4cc/ 4f/	.	1f/	1cc\	.	1f/	.	(8dd\L	.
.	.	.	.	.	16e-/ 16c/	.	.	.	.	.	.	.	.	.	.
.	.	.	.	.	16e-/ 16c/	.	.	.	.	.	.	.	.	8cc\J)	.
.	.	.	.	.	16e-/ 16c/	.	.	.	.	.	.	.	.	.	.
8c\L	_	.	8cc\L	.	16e-/ 16c/	.	(16ee-\LL	.	.	.	.	.	.	2cc\	.
.	.	.	.	.	16e-/ 16c/	.	16dd\	.	.	.	.	.	.	.	.
8B-\J	.	.	8b-\J	.	16e-/ 16c/	.	16cc\	.	.	.	.	.	.	.	.
.	.	.	.	.	16e-/JJ 16c/	.	16b-\JJ)	.	.	.	.	.	.	.	.
!	!	!	!	!	!	!	!LO:LB:g=original	!	!	!	!	!	!	!	!
4A\	.	.	4a\	.	16e-/LL 16c/	.	8a/L	.	.	.	.	.	.	.	.
.	.	.	.	.	16e-/ 16c/	.	.	.	.	.	.	.	.	.	.
.	.	.	.	.	16e-/ 16c/	.	8f/	.	.	.	.	.	.	.	.
.	.	.	.	.	16e-/ 16c/	.	.	.	.	.	.	.	.	.	.
4F\	.	.	4f\	.	16e-/ 16c/	.	8g/	.	.	.	.	.	.	4cc\	.
.	.	.	.	.	16e-/ 16c/	.	.	.	.	.	.	.	.	.	.
.	.	.	.	.	16e-/ 16c/	.	8a/J	.	.	.	.	.	.	.	.
.	x	.	.	.	16e-/JJ 16c/	.	.	.	.	.	.	.	.	.	.
!LO:LB:g=original	!	!	!	!	!	!	!	!	!	!	!	!	!	!LO:LB:g=original	!
=89	=89	=89	=89	=89	=89	=89	=89	=89	=89	=89	=89	=89	=89	=89	=89
4B-\	.	.	8b-\L	.	4d/ 4B-/	.	4b-/ 4d/	.	4d/	4b-\	.	4d/	.	4b-\	.
.	.	.	8b-\	.	.	.	.	.	.	.	.	.	.	.	.
4B-\	.	.	8b-\	.	4d/ 4B-/	.	4.b-/ 4.d/	.	4d/	4b-\	.	8d/L	.	8b-\L	.
.	.	.	8b-\J	.	.	.	.	.	.	.	.	8d/J	.	8b-\J	.
4B-\	.	.	4b-\	.	4d/ 4B-/	.	.	.	4d/	4b-\	.	4d/	.	4b-\	.
.	.	.	.	.	.	.	8f\L	.	.	.	.	.	.	.	.
4r	.	.	4r	.	4r	.	8b-\	.	4r	4r	.	4r	.	4r	.
.	.	.	.	.	.	.	8cc\J	p	.	.	.	.	.	.	.
=90	=90	=90	=90	=90	=90	=90	=90	=90	=90	=90	=90	=90	=90	=90	=90
!	!	!	!LO:TX:a:t=1	!	!	!LO:DY:rj	!	!	!LO:TX:a:t=1	!LO:TX:a:t=1	!	!LO:TX:a:t=1	!	!LO:TX:a:t=1	!
4B-\	.	p	1r	.	8b-\L	p	2dd\	.	1r	1r	.	1r	.	1r	.
.	.	.	.	.	8f\	.	.	.	.	.	.	.	.	.	.
4D\	6	.	.	.	8d\	.	.	.	.	.	.	.	.	.	.
.	.	.	.	.	8f\J	.	.	.	.	.	.	.	.	.	.
4E-\	6 5	.	.	.	4.e-/	.	8cc\L	.	.	.	.	.	.	.	.
.	.	.	.	.	.	.	8b-\	.	.	.	.	.	.	.	.
4F\	5 3	.	.	.	.	.	8cc\	.	.	.	.	.	.	.	.
.	.	.	.	.	8f/	.	8dd\J	.	.	.	.	.	.	.	.
=91	=91	=91	=91	=91	=91	=91	=91	=91	=91	=91	=91	=91	=91	=91	=91
!	!	!	!	!	!	!	!	!LO:DY:rj	!	!	!	!	!	!	!
4B-\	.	.	4r	.	4d/	.	4b-/ 4d/	f	4r	4r	.	2r	.	2r	.
!	!	!	!	!	!	!LO:DY:rj	!	!	!	!	!	!	!	!	!
4B-\	.	f	8b-\L	.	4d/ 4B-/	f	4.b-/ 4.d/	.	8d/L	8b-\L	.	.	.	.	.
.	.	.	8b-\J	.	.	.	.	.	8d/J	8b-\J	.	.	.	.	.
4B-\	.	.	4b-\	.	4d/ 4B-/	.	.	.	4d/	4b-\	.	8r	.	8r	.
!	!	!	!	!	!	!	!LO:TX:t=P:problem:mixed beam	!	!	!	!	!	!LO:DY:rj	!	!
.	.	.	.	.	.	.	8f/L	.	.	.	.	8f\L	p	8b-\L	.
4r	.	.	4r	.	4r	.	8b-\	pp	4r	4r	.	8b-\	.	8dd\	p
.	.	.	.	.	.	.	8cc\J	.	.	.	.	8cc\J	.	8ee-\J	.
=92	=92	=92	=92	=92	=92	=92	=92	=92	=92	=92	=92	=92	=92	=92	=92
!	!	!	!LO:TX:a:t=1	!	!	!LO:DY:rj:t=pp.	!	!	!LO:TX:a:t=1	!LO:TX:a:t=1	!	!	!	!	!
4B-\	.	pp	1r	.	8b-\L	pp	2dd\	.	1r	1r	.	2dd\	.	2ff\	.
.	.	.	.	.	8f\	.	.	.	.	.	.	.	.	.	.
4D\	6	.	.	.	8d\	.	.	.	.	.	.	.	.	.	.
.	.	.	.	.	8f\J	.	.	.	.	.	.	.	.	.	.
4E-\	6 5	.	.	.	4.e-/	.	8cc\L	.	.	.	.	8cc\L	.	8ee-\L	.
.	.	.	.	.	.	.	8b-\	.	.	.	.	8b-\	.	8dd\	.
4F\	5 3	.	.	.	.	.	8cc\	.	.	.	.	8cc\	.	8ee-\	.
.	.	.	.	.	8f/	.	8dd\J	.	.	.	.	8dd\J	.	8ff\J	.
=93	=93	=93	=93	=93	=93	=93	=93	=93	=93	=93	=93	=93	=93	=93	=93
!	!	!	!	!	!	!LO:DY:rj	!	!LO:DY:rj	!	!	!	!	!	!	!
4B-\	.	.	4r	.	4d/	f	4b-\	f	4r	4r	.	4b-\	.	4dd\	.
!	!	!	!	!	!	!	!	!	!	!	!	!	!	!	!LO:DY:rj
4BB-/	.	.	8B-/L	.	4b-/ 4d/	.	4bb-/ 4b-/ 4d/	.	8d/L	8b-\L	.	8dd\L	.	8bb-\L	f
.	.	.	8B-/J	.	.	.	.	.	8d/J	8b-\J	.	8ff\J	.	8bb-\J	.
4BB-/	.	.	4B-/	.	4b-/ 4d/	.	4bb-/ 4b-/ 4d/	.	4d/	4b-\	.	4dd\	.	4bb-\	.
4r	.	.	4r	.	4r	.	4r	.	4r	4r	.	4r	.	4r	.
==	==	==	==	==	==	==	==	==	==	==	==	==	==	==	==
*-	*-	*-	*-	*-	*-	*-	*-	*-	*-	*-	*-	*-	*-	*-	*-
!!!system-decoration: [(s1,s2)][(s3,s4)][(s5,s6,s7)][(s8)]
!!!RDF**dynam: p = p:
!!!RDF**dynam: f = f:
!!!RDF**kern: > = above
!!!RDF**kern: < = below
!!!ENC:Anastazja Marusiak
!!!END:2021-12-08
!!!ENC: Leszek Kubiak
!!!END: 2021-12-14
